!!!!SEGMENT: pl-kk--kk-i-211_mouton-jean--missus-est-gabriel-angelus.krn
!!!cenid: 16xx:768
!!!COM: Mouton, Jean
!!!COM-rismID:
!!!CDT: ~1459-1522
!!!CNT: French
!!!OTL: Missus est Gabriel Angelus
!!!PDT:
!!!AGN: Sacred
!!!SMS-siglum: PL-Kk
!!!SMS-shelfmark: Kk.I.211
!!!SMS-shelfwork: W
!!!SMS-variant:
!!!SMS-altvar:
!!!NIFC-rismSourceID: 1001143692
!!!NIFC-islandoraID: pl-kk:4227
!!!URL-pdf-islandora: https://repozytorium.nifc.pl/islandora/object/pl-kk%3A4227/datastream/PDF/view
!!!URL-scan: https://polish.musicsources.pl/pl/lokalizacje/galeria/rekopisy/5836 @EN{Scan on Polish Music Herritage in Open Access Website} @PL{Skany w portalu Dziedzictwo Muzyki Polskiej w otwartym dostępie}
!!!ONB-nifc:
!!!AIN: 1 alto 1 bass 1 soprn 2 tenor
!!!key:
**kern	**text	**kern	**text	**kern	**text	**text	**kern	**text	**kern	**text
*part5	*part5	*part4	*part4	*part3	*part3	*part3	*part2	*part2	*part1	*part1
*staff5	*staff5	*staff4	*staff4	*staff3	*staff3	*staff3	*staff2	*staff2	*staff1	*staff1
*Ibass	*	*Itenor	*	*Itenor	*	*	*Ialto	*	*Isoprn	*
*I"[Bassus]	*	*I"[Tenor 2]	*	*I"[Tenor 1]	*	*	*I"[Altus]	*	*I"[Superius]	*
*I'B	*	*I'T II	*	*I'T I	*	*	*I'A	*	*I'S	*
*clefF4	*	*clefC3	*	*clefC2	*	*	*clefC1	*	*clefG2	*
*k[]	*	*k[]	*	*k[]	*	*	*k[]	*	*k[]	*
*C:	*	*C:	*	*C:	*	*	*C:	*	*C:	*
*M2/1	*	*M2/1	*	*M2/1	*	*	*M2/1	*	*M2/1	*
*met(C|)	*	*met(C|)	*	*met(C|)	*	*	*met(C|)	*	*met(C|)	*
=1-	=1-	=1-	=1-	=1-	=1-	=1-	=1-	=1-	=1-	=1-
!	!	!	!	!	!	!	!	!	!LO:TX:t=P://josquin.stanford.edu/work/?id=Mou2124:problem=błędy wysokości SIC (edytorskie) przyjęto za https	!
!	!	!	!	!LO:TX:t=P:problem=partia bez kresek taktowych	!	!	!LO:TX:t=P:problem=partia bez kresek taktowych	!	!LO:TX:t=P://josquin.stanford.edu/work/?id=Mou2124]:problem=w utworze brak nazw głosów [przyjęto za źródłem https	!
!LO:TX:t=P:problem=partia bez kresek taktowych	!	!LO:TX:t=P:problem=partia bez kresek taktowych	!	!LO:TX:t=P:problem=oznaczenie metryczne C|	!	!	!LO:TX:t=P:problem=oznaczenie metryczne C|	!	!LO:TX:t=P:problem=partia bez kresek taktowych	!
!LO:TX:t=P:problem=oznaczenie metryczne C|	!	!LO:TX:t=P:problem=oznaczenie metryczne C|	!	!LO:TX:a:t=4	!	!	!LO:TX:a:t=4	!	!LO:TX:t=P:problem=oznaczenie metryczne C|	!
1rD	.	1e\	Miſ-	00A/	Miſ-	.	00a\	Miſ-	0rcc	.
1A\	Miſ-	1.c\	-ſ(us)	.	.	.	.	.	.	.
=2-	=2-	=2-	=2-	=2-	=2-	=2-	=2-	=2-	=2-	=2-
1F\	-sus	.	.	.	.	.	.	.	1a/	Miſ-
.	.	4B/	.	.	.	.	.	.	.	.
.	.	4A/	.	.	.	.	.	.	.	.
1D\	eſt	1.d\	eſt	.	.	.	.	.	1f/	-ſus
=3-	=3-	=3-	=3-	=3-	=3-	=3-	=3-	=3-	=3-	=3-
1G\	Ga-	.	.	0B/	-ſ(us)	.	0g\	-sus	1d/	eſt
.	.	4c/	.	.	.	.	.	.	.	.
.	.	4B/	.	.	.	.	.	.	.	.
2E\	-bri-	2.e\	Ga-	.	.	.	.	.	1g/	Ga-
2E\	-el	.	.	.	.	.	.	.	.	.
.	.	4d\	.	.	.	.	.	.	.	.
=4-	=4-	=4-	=4-	=4-	=4-	=4-	=4-	=4-	=4-	=4-
2.A\	An-	2.c/	.	0c/	eſt	.	0a\	.	2e/	-bri-
.	.	.	.	.	.	.	.	.	2e/	-el
4G\	.	4B/	-bri-	.	.	.	.	.	.	.
2F\	.	0A/	-el	.	.	.	.	.	2.a/	An-
2E\	-ge-	.	.	.	.	.	.	.	.	.
.	.	.	.	.	.	.	.	.	4g/	.
=5-	=5-	=5-	=5-	=5-	=5-	=5-	=5-	=5-	=5-	=5-
1D\	-l(us)	.	.	0d/	Ga-	[[An-	1a\	eſt	2f/	.
.	.	.	.	.	.	.	.	.	2e/	-ge-
2.G\	a	2.B/	An-	.	.	.	1r	.	2d/	-l(us)
.	.	.	.	.	.	.	.	.	2.dd\	a
4F\	.	4c\	.	.	.	.	.	.	.	.
=6-	=6-	=6-	=6-	=6-	=6-	=6-	=6-	=6-	=6-	=6-
0D\	.	1d\	.	0f\	-bri-	-ge-	1a\	Ga-	.	.
.	.	.	.	.	.	.	.	.	4ee\	.
.	.	.	.	.	.	.	.	.	1ff\	.
.	.	2.A/	.	.	.	.	2a\	-bri-	.	.
.	.	.	.	.	.	.	1a\	-el	4ee\	.
.	.	4B/	-ge-	.	.	.	.	.	4dd\	.
=7-	=7-	=7-	=7-	=7-	=7-	=7-	=7-	=7-	=7-	=7-
2.A\	De-	1c\	-l(us)	0e\	-el	-lus	.	.	2cc\	.
.	.	.	.	.	.	.	2a\	an-	2.ee\	De-
4G\	.	.	.	.	.	.	.	.	.	.
2E\	.	2B/	a	.	.	.	2g/	-ge-	.	.
.	.	.	.	.	.	.	.	.	4dd\	.
1A\	.	2.c/	De-	.	.	.	2a\	-l(us)	4cc\	.
.	.	.	.	.	.	.	.	.	4b\	.
=8-	=8-	=8-	=8-	=8-	=8-	=8-	=8-	=8-	=8-	=8-
!	!	!	!	!	!	!	!LO:TX:t=P:problem=kreska na 3-4 polu [rozdzielacz słów / znak oddechu]	!	!	!
.	.	.	.	0e\	An-	Ga-	2cc,\	a	2a/	.
.	.	4A/	.	.	.	.	.	.	.	.
2G\	-o	2B/	.	.	.	.	2b\	De-	1dd\	.
1A\	in	1c\	.	.	.	.	2.a\	.	.	.
!	!	!	!	!	!	!	!	!	!LO:SIC:v:s=2cc#	!
.	.	.	.	.	.	.	.	.	2cc\	.
.	.	.	.	.	.	.	4g\	.	.	.
=9-	=9-	=9-	=9-	=9-	=9-	=9-	=9-	=9-	=9-	=9-
1D\	Ci-	2A/	.	0d/	-ge-	-bri-	4f/	.	1dd\	-o
.	.	.	.	.	.	.	4e/	.	.	.
!	!	!LO:SIC:v:s=1B-	!	!	!	!	!	!	!	!
.	.	1B/	.	.	.	.	1d/	.	.	.
1G\	-vi-	.	.	.	.	.	.	.	1dd\	in
.	.	4A/	.	.	.	.	1g\	.	.	.
.	.	4G/	.	.	.	.	.	.	.	.
=10-	=10-	=10-	=10-	=10-	=10-	=10-	=10-	=10-	=10-	=10-
1D\	-ta-	1A/	-o	1d/	-lus	-el]]	.	.	1dd\	Ci-
!	!	!	!	!	!	!	!LO:SIC:v:s=2f#	!	!	!
.	.	.	.	.	.	.	2f/	.	.	.
1G\	-tem	2rF	.	1B/	a	.	0.g\	-o	1dd\	-vi-
.	.	2G/	in	.	.	.	.	.	.	.
=11-	=11-	=11-	=11-	=11-	=11-	=11-	=11-	=11-	=11-	=11-
0.C/	.	2G/	Ci-	1.c/	De-	.	.	.	1.ee\	-ta-
*	*	*custos:c	*	*	*	*	*	*	*	*
.	.	2G/	-vi-	.	.	.	.	.	.	.
!	!	!LO:LB:g=original	!	!	!	!	!	!	!	!
.	.	2.c/	-ta-	.	.	.	.	.	.	.
.	.	.	.	2d/	-o	.	.	.	2dd\	-tem
.	.	4B/	-te(m)	.	.	.	.	.	.	.
!	!	!	!	!	!	!	!	!	!LO:LB:g=original	!
=12-	=12-	=12-	=12-	=12-	=12-	=12-	=12-	=12-	=12-	=12-
.	.	2A/	Ga-	1e\	in	.	1rg	.	2cc\	Ga-
.	.	2G/	-li-	.	.	.	.	.	2b/	.
1D\	Ga-	1F/	-lae-	1f\	Ci-	.	1d/	in	2.a/	.
.	.	.	.	.	.	.	.	.	4b\	.
=13-	=13-	=13-	=13-	=13-	=13-	=13-	=13-	=13-	=13-	=13-
!	!	!LO:SIC:v:l:s=-a	!	!	!	!	!	!	!	!
1C/	-li-	1E/	-ae	1g\	-vi-	.	1e/	Ci-	4cc\	.
.	.	.	.	.	.	.	.	.	4dd\	.
.	.	.	.	.	.	.	.	.	2.cc\	-li-
!LO:LB:g=original	!	!	!	!	!	!	!	!	!	!
2.F\	-lae-	1A/	Cu-	0a\	-ta-	.	1c/	-vi-	.	.
.	.	.	.	.	.	.	.	.	4b/	.
.	.	.	.	.	.	.	.	.	4a/	.
4E\	.	.	.	.	.	.	.	.	4g/	.
=14-	=14-	=14-	=14-	=14-	=14-	=14-	=14-	=14-	=14-	=14-
2D/	.	1A/	-i	.	.	.	0d/	-ta-	2f/	.
2C/	.	.	.	.	.	.	.	.	4e/	.
.	.	.	.	.	.	.	.	.	4d/	.
!	!	!	!	!LO:LB:g=original	!	!	!	!	!	!
!	!	!	!	!LO:SIC:v:s=1g#	!	!	!	!	!	!
1BB/	.	1B/	no-	1g\	-tem	.	.	.	1dd\	-le-
=15-	=15-	=15-	=15-	=15-	=15-	=15-	=15-	=15-	=15-	=15-
!LO:SIC:v:l:s=-a	!	!	!	!	!	!	!	!	!	!
1AA/	-ae	1c\	-men	1a\	Ga-	.	1e/	-tem	1cc\	-ae
!	!	!	!	!	!	!	!LO:LB:g=original	!	!	!
1D\	.	2.A/	Na-	1f\	-li-	.	2d/	Ga-	1r	.
.	.	.	.	.	.	.	2a\	-li-	.	.
.	.	4B/	.	.	.	.	.	.	.	.
=16-	=16-	=16-	=16-	=16-	=16-	=16-	=16-	=16-	=16-	=16-
2rBB	.	0c\	-za-	0e\	-le-	.	2g/	-lae-	1ee\	cu-
2C/	cu-	.	.	.	.	.	2.cc\	.	.	.
2C/	-i	.	.	.	.	.	.	.	1ee\	-i
.	.	.	.	.	.	.	4b\	.	.	.
2C/	no-	.	.	.	.	.	4a\	.	.	.
.	.	.	.	.	.	.	4g\	.	.	.
=17-	=17-	=17-	=17-	=17-	=17-	=17-	=17-	=17-	=17-	=17-
!	!	!LO:TX:t=P:problem=kreska taktowa pojedyncza	!	!LO:TX:a:t=4	!	!	!	!	!	!
1.D\	-men	0A/	-reth	00d/	-ae	.	2.f/	-ae	2.ff\	no-
.	.	.	.	.	.	.	4g\	.	4ee\	.
.	.	.	.	.	.	.	4a\	.	2dd\	-men
!	!	!	!	!	!	!	!LO:SIC:v:s=4b-	!	!	!
.	.	.	.	.	.	.	4b\	.	.	.
2F\	.	.	.	.	.	.	2.a\	cu-	2cc\	.
=18-	=18-	=18-	=18-	=18-	=18-	=18-	=18-	=18-	=18-	=18-
1G\	.	1rA	.	.	.	.	.	.	2b/	Na-
.	.	.	.	.	.	.	4g/	.	.	.
.	.	.	.	.	.	.	1g\	-i	2b/	-za-
!	!	!	!	!	!	!	!	!	!LO:TX:t=P:problem=kreska na 1 polu [rozdzielacz słów / znak oddechu]	!
1D\	Na	2r	.	.	.	.	.	.	1a/,<	-reth
!	!	!	!	!	!	!	!LO:SIC:v:s=4f#	!	!	!
.	.	2d\	ad	.	.	.	2f/	no-	.	.
=19-	=19-	=19-	=19-	=19-	=19-	=19-	=19-	=19-	=19-	=19-
1G\	za-	2d\	Vir-	00r	.	.	1g\	.	1b\	ad
.	.	2e\	-gi-	.	.	.	.	.	.	.
0F\	-reth	2.f\	-ne(m)	.	.	.	1c/	-men	2a/	.
.	.	.	.	.	.	.	.	.	2.cc\	Vir-
.	.	4e\	.	.	.	.	.	.	.	.
=20-	=20-	=20-	=20-	=20-	=20-	=20-	=20-	=20-	=20-	=20-
.	.	2d\	.	.	.	.	1rg	.	.	.
.	.	.	.	.	.	.	.	.	4b/	.
.	.	2c/	.	.	.	.	.	.	1a/	.
1G\	ad	1B/	de-	.	.	.	0d/	ad	.	.
.	.	.	.	.	.	.	.	.	2g/	-gi-
=21-	=21-	=21-	=21-	=21-	=21-	=21-	=21-	=21-	=21-	=21-
2.D/	Vir-	2A/	-ſpon-	0.f\	ad	.	.	.	1.a/	-ne
.	.	1d\	.	.	.	.	.	.	.	.
4E\	.	.	.	.	.	.	.	.	.	.
2F\	.	.	.	.	.	.	1.a\	Vir-	.	.
2F\	-gi-	2c/	.	.	.	.	.	.	2.ff\	de-
=22-	=22-	=22-	=22-	=22-	=22-	=22-	=22-	=22-	=22-	=22-
1D\	-ne(m)	1d\	-ſa-	.	.	.	.	.	.	.
.	.	.	.	.	.	.	.	.	4ee\	.
.	.	.	.	.	.	.	2a\	-gi-	1dd\	-ſpon-
2r	.	1A/	-tam	1e\	Vir-	.	1a\	-ne	.	.
!	!	!	!	!	!	!	!	!	!LO:SIC:v:s=2cc#	!
2A\	de-	.	.	.	.	.	.	.	2cc\	-ſa-
=23-	=23-	=23-	=23-	=23-	=23-	=23-	=23-	=23-	=23-	=23-
!LO:SIC:v:s=2.B-	!	!	!	!	!	!	!	!	!	!
2.B\	-ſpon-	0r	.	0d/	-gi-	.	1f/	de-	1dd\	-ta(m)
4A\	.	.	.	.	.	.	.	.	.	.
!	!	!	!	!	!	!	!	!	!LO:LB:g=original	!
!	!	!	!	!	!	!	!LO:SIC:v:s=4b-	!	!	!
2G\	-Sa-	.	.	.	.	.	2b\	-ſpon-	0r	.
1F\	.	.	.	.	.	.	1a\	-ſa-	.	.
=24-	=24-	=24-	=24-	=24-	=24-	=24-	=24-	=24-	=24-	=24-
.	.	1A/	Cu-	0c/	-nem	.	.	.	.	.
4E\	.	.	.	.	.	.	4g\	.	.	.
4D\	.	.	.	.	.	.	4f\	.	.	.
*	*	*custos:A	*	*	*	*	*	*	*	*
1E\	.	1G/	-i	.	.	.	1g\	-ta(m)	1ee\	Vi-
!	!	!LO:LB:g=original	!	!	!	!	!	!	!	!
=25-	=25-	=25-	=25-	=25-	=25-	=25-	=25-	=25-	=25-	=25-
!LO:SIC:v:l:s=-tem	!	!	!	!	!	!	!	!	!	!
1.D\	-tam	2A/	no-	1d/	de-	.	2.f/	Vi-	2.ff\	-ro
.	.	2.d/	.	.	.	.	.	.	.	.
.	.	.	.	.	.	.	4g\	.	4ee\	.
.	.	.	.	1.f\	-ſpon-	.	0a\	-ro	2dd\	cu-
.	.	4c/	.	.	.	.	.	.	.	.
!LO:LB:g=original	!	!	!	!	!	!	!	!	!	!
2.F\	Vi-	2.A/	-men	.	.	.	.	.	2cc\	-i
=26-	=26-	=26-	=26-	=26-	=26-	=26-	=26-	=26-	=26-	=26-
.	.	.	.	.	.	.	.	.	2dd\	No-
8E\L	.	4B/	.	.	.	.	.	.	.	.
8D\J	.	.	.	.	.	.	.	.	.	.
2.C/	-ro	4c\	.	2e/	.	.	.	.	1ee\	.
.	.	4d\	.	.	.	.	.	.	.	.
.	.	1e\	e-	1.g\	-ſa-	.	1.g\	cu-	.	.
4D\	.	.	.	.	.	.	.	.	.	.
4E\	.	.	.	.	.	.	.	.	4dd\	.
4F\	.	.	.	.	.	.	.	.	4cc\	.
=27-	=27-	=27-	=27-	=27-	=27-	=27-	=27-	=27-	=27-	=27-
2G\	.	1d\	-rat	.	.	.	.	.	2b/	-men
2D/	.	.	.	2f\	.	.	2a\	-i	2.a/	e-
1G\	cui	1B/	Jo-	2e/	.	.	1b\	no-	.	.
.	.	.	.	.	.	.	.	.	4g/	.
.	.	.	.	2d/	.	.	.	.	1g/	.
=28-	=28-	=28-	=28-	=28-	=28-	=28-	=28-	=28-	=28-	=28-
1A\	no-	1c\	.	1c/	-tam	.	1a\	-men	.	.
.	.	.	.	.	.	.	.	.	2f/	.
2G\	-men	2d\	-ſeph	2B/	cu-	.	0dd\	e-	2g/	-rat
2F\	.	2.f\	.	2c/	-i	.	.	.	2.a/	Jo-
=29-	=29-	=29-	=29-	=29-	=29-	=29-	=29-	=29-	=29-	=29-
1D\	.	.	.	1d/	no-	.	.	.	.	.
.	.	4e\	.	.	.	.	.	.	4g/	.
.	.	4d\	.	.	.	.	.	.	4f/	.
.	.	4c\	.	.	.	.	.	.	4e/	.
!	!	!	!	!	!	!	!LO:LB:g=original	!	!	!
1rD	.	1d\	.	1f\	-men	.	0a\	-rat	2d/	.
.	.	.	.	.	.	.	.	.	1dd\	ſeph
!	!	!	!	!LO:LB:g=original	!	!	!	!	!	!
=30-	=30-	=30-	=30-	=30-	=30-	=30-	=30-	=30-	=30-	=30-
2r	.	1A/	.	1e\	e-	.	.	.	.	.
!	!	!	!	!	!	!	!	!	!LO:SIC:v:s=2cc#	!
2A\	e-	.	.	.	.	.	.	.	2cc\	.
!LO:SIC:v:s=2.B-	!	!	!	!	!	!	!	!	!	!
2.B\	.	0r	.	0d/	-rat	.	1f/	Jo-	0dd\	.
4A\	.	.	.	.	.	.	.	.	.	.
=31-	=31-	=31-	=31-	=31-	=31-	=31-	=31-	=31-	=31-	=31-
2G\	-rat	.	.	.	.	.	2g/	.	.	.
2F\	Jo-	.	.	.	.	.	1a\	.	.	.
!	!	!	!	!LO:SIC:v:l:s=Jo-	!	!	!	!	!	!
1E\	.	1G/	de	1c/	J-	.	.	.	1rb	.
.	.	.	.	.	.	.	1g\	.	.	.
=32-	=32-	=32-	=32-	=32-	=32-	=32-	=32-	=32-	=32-	=32-
1D\	-seph	1A/	do-	1d/	-seph	.	.	.	1a/	de
!	!	!	!	!	!	!	!LO:SIC:v:s=2f#	!	!	!
.	.	.	.	.	.	.	2f/	-ſeph	.	.
1rBB	.	0G/	-mo	1B/	de	.	0g\	.	1b\	Do-
=33-	=33-	=33-	=33-	=33-	=33-	=33-	=33-	=33-	=33-	=33-
1C/	de	.	.	1.c/	Do-	.	.	.	2g/	-mo
.	.	.	.	.	.	.	.	.	1cc\	.
1F\	Do-	1A/	Da-	.	.	.	1r	.	.	.
.	.	.	.	2d/	-mo	.	.	.	4b\	Da-
.	.	.	.	.	.	.	.	.	4a\	.
=34-	=34-	=34-	=34-	=34-	=34-	=34-	=34-	=34-	=34-	=34-
2.E\	-mo	1.B/	.	0e\	Da-	.	2.b\	de	1.g/	.
4F\	.	.	.	.	.	.	4a\	.	.	.
4G\	.	.	.	.	.	.	4b\	.	.	.
4E\	.	.	.	.	.	.	4g\	.	.	.
2.A\	Da-	2A/	.	.	.	.	2.cc\	Do-	4f/	.
.	.	.	.	.	.	.	.	.	4e/	.
=35-	=35-	=35-	=35-	=35-	=35-	=35-	=35-	=35-	=35-	=35-
.	.	1c\	.	0A/	-vid	.	.	.	0a/	-vid
4G\	.	.	.	.	.	.	4b\	.	.	.
4F\	.	.	.	.	.	.	4a\	.	.	.
4E\	.	.	.	.	.	.	4g\	.	.	.
2D/	.	2.d/	.	.	.	.	4f\	.	.	.
.	.	.	.	.	.	.	4e/	.	.	.
2F\	.	.	.	.	.	.	2a\	.	.	.
.	.	8c\L	.	.	.	.	.	.	.	.
.	.	8d\J	.	.	.	.	.	.	.	.
=36-	=36-	=36-	=36-	=36-	=36-	=36-	=36-	=36-	=36-	=36-
2.E/	.	2e\	.	0r	.	.	2g/	-mo	1rg	.
.	.	2c/	.	.	.	.	1a\	Da-	.	.
4D/	.	.	.	.	.	.	.	.	.	.
1E\	.	1B/	.	.	.	.	.	.	1e/	et
!	!	!	!	!	!	!	!LO:SIC:v:s=2g#	!	!	!
.	.	.	.	.	.	.	2g/	.	.	.
!LO:LB:g=original	!	!	!	!	!	!	!	!	!	!
=37-	=37-	=37-	=37-	=37-	=37-	=37-	=37-	=37-	=37-	=37-
1AA/	-vid	0A/	-vid	0c/	et	.	2a\	-vid	1.e/	no-
.	.	.	.	.	.	.	1cc\	et	.	.
2r	.	.	.	.	.	.	.	.	.	.
2A\	et	.	.	.	.	.	4b\	.	2f/	.
.	.	.	.	.	.	.	4a\	.	.	.
!	!	!	!	!	!	!	!	!	!LO:LB:g=original	!
=38-	=38-	=38-	=38-	=38-	=38-	=38-	=38-	=38-	=38-	=38-
2G\	no-	1rA	.	0d/	no-	.	2b\	.	2g/	-men
2F\	-men	.	.	.	.	.	2a\	.	1a/	Vir-
!LO:SIC:v:s=1B-	!	!	!	!	!	!	!	!	!	!
1B\	Vir-	1G/	no-	.	.	.	1dd\	no-	.	.
.	.	.	.	.	.	.	.	.	2g/	.
=39-	=39-	=39-	=39-	=39-	=39-	=39-	=39-	=39-	=39-	=39-
1A\	-gi-	1c\	-men	1e\	-men	.	1cc\	-men	1a/	-gi-
!	!	!LO:LB:g=original	!	!	!	!	!	!	!	!
!	!	!	!	!	!	!	!LO:TX:a:t=4	!	!	!
1G\	-nis	1.d\	Vir-	1g\	Vir-	.	00r	.	1b\	-nis
=40-	=40-	=40-	=40-	=40-	=40-	=40-	=40-	=40-	=40-	=40-
1D\	Ma-	.	.	0f\	-gi-	.	.	.	2a/	Ma-
.	.	2A/	-gi-	.	.	.	.	.	2.dd\	-ri-
1D\	-ri-	2.d/	-nis	.	.	.	.	.	.	.
.	.	.	.	.	.	.	.	.	4cc\	.
.	.	.	.	.	.	.	.	.	4b\	.
.	.	4c/	.	.	.	.	.	.	4a/	.
=41-	=41-	=41-	=41-	=41-	=41-	=41-	=41-	=41-	=41-	=41-
0E\	-a	2B/	.	0.e\	-nis	.	.	.	2g/	.
.	.	2A/	Ma-	.	.	.	.	.	1a/	.
.	.	1B/	-ri-	.	.	.	1b\	Vir-	.	.
!	!	!	!	!	!	!	!	!	!LO:SIC:v:s=2g#	!
.	.	.	.	.	.	.	.	.	2g/	.
=42-	=42-	=42-	=42-	=42-	=42-	=42-	=42-	=42-	=42-	=42-
1rD	.	1A/	-a	.	.	.	1cc\	-gi-	1a/	-a
1G\	Et	1rA	.	1d/	Ma-	.	1b\	-nis	0r	.
=43-	=43-	=43-	=43-	=43-	=43-	=43-	=43-	=43-	=43-	=43-
1F\	in-	1c\	et	0f\	-ri-	.	1a\	Ma-	.	.
1F\	-greſ-	1c\	in-	.	.	.	1a\	-ri-	1cc\	et
=44-	=44-	=44-	=44-	=44-	=44-	=44-	=44-	=44-	=44-	=44-
1C/	-s(us)	1c\	-greſ-	1e\,<	-a	.	1g\	-a	1cc\	in-
!	!	!	!	!	!	!	!LO:LB:g=original	!	!	!
1rBB	.	1G/	-ſ(us)	0d/	et	.	1g\	et	1b\	-greſ-
=45-	=45-	=45-	=45-	=45-	=45-	=45-	=45-	=45-	=45-	=45-
1D\	An-	1rA	.	.	.	.	1.f/	in-	1a/	-ſ(us)
*	*	*lig	*	*	*	*	*	*	*	*
!	!	!LO:TX:t=P:global:problem=przyjęto ligaturę c.o.p.	!	!	!	!	!	!	!	!
1F\	-ge-	1A/	an-	1c/	In-	.	.	.	1a/	ad
.	.	.	.	.	.	.	2e/	.	.	.
=46-	=46-	=46-	=46-	=46-	=46-	=46-	=46-	=46-	=46-	=46-
0G\	-lus	1.d\	.	0B/	-greſ-	.	2d/	-greſ-	1.g/	e-
.	.	.	.	.	.	.	2dd\	.	.	.
.	.	.	.	.	.	.	2b\	-ſ(us)	.	.
*	*	*Xlig	*	*	*	*	*	*	*	*
.	.	2d\	-ge-	.	.	.	1dd\	.	4d/	-am
.	.	.	.	.	.	.	.	.	4e/	.
!	!	!	!	!LO:LB:g=original	!	!	!	!	!	!
=47-	=47-	=47-	=47-	=47-	=47-	=47-	=47-	=47-	=47-	=47-
1D\	ad	1d\	-l(us)	0A/	-ſ(us)	.	.	.	4f/	.
.	.	.	.	.	.	.	.	.	4g/	.
.	.	.	.	.	.	.	4cc\	ad	1a/	di-
.	.	.	.	.	.	.	4b\	.	.	.
1F\	e-	1.c\	ad	.	.	.	2.a\	.	.	.
.	.	.	.	.	.	.	.	.	4g/	.
.	.	.	.	.	.	.	4b\	.	4f/	.
=48-	=48-	=48-	=48-	=48-	=48-	=48-	=48-	=48-	=48-	=48-
1C/	-am	.	.	1rA	.	.	4cc\	.	1e/	.
.	.	.	.	.	.	.	4dd\	.	.	.
.	.	2G/	.	.	.	.	1cc\	e-	.	.
1F\	di-	2A/	e-	0c/	an-	.	.	.	1a/	-xit
.	.	2F/	-am	.	.	.	4b\	.	.	.
.	.	.	.	.	.	.	4a\	.	.	.
=49-	=49-	=49-	=49-	=49-	=49-	=49-	=49-	=49-	=49-	=49-
1E\	-xit	1G/	.	.	.	.	1g\	.	0rb	.
0D\	A-	1A/	di-	1d/	-ge-	.	2f/	-am	.	.
.	.	.	.	.	.	.	2.a\	di-	.	.
=50-	=50-	=50-	=50-	=50-	=50-	=50-	=50-	=50-	=50-	=50-
.	.	2.F/	.	0f\	-luſ	.	.	.	1a/	A-
.	.	.	.	.	.	.	4g/	.	.	.
.	.	.	.	.	.	.	4f/	.	.	.
.	.	4G/	.	.	.	.	4e/	.	.	.
1D\	-ve	4A/	.	.	.	.	1d/	-xit	1a/	-ve
!	!	!LO:SIC:v:s=4B-	!	!	!	!	!	!	!	!
.	.	4B/	.	.	.	.	.	.	.	.
.	.	1A/	.	.	.	.	.	.	.	.
=51-	=51-	=51-	=51-	=51-	=51-	=51-	=51-	=51-	=51-	=51-
0AA/	Ma-	.	.	1e\	ad	.	1r	.	0cc\	Ma-
.	.	4G/	.	.	.	.	.	.	.	.
.	.	4F/	.	.	.	.	.	.	.	.
.	.	1E/	-xit	0e\	e-	.	0a\	A-	.	.
=52-	=52-	=52-	=52-	=52-	=52-	=52-	=52-	=52-	=52-	=52-
1AA/	-ri-	2rA	.	.	.	.	.	.	1cc\	-ri-
.	.	1A/	gra-	.	.	.	.	.	.	.
1D\	-a	.	.	1d/	-a(m)	.	1a\	-ve	1dd\	-a
.	.	2A/	-ti-	.	.	.	.	.	.	.
!	!	!LO:LB:g=original	!	!	!	!	!	!	!LO:LB:g=original	!
=53-	=53-	=53-	=53-	=53-	=53-	=53-	=53-	=53-	=53-	=53-
1D\	gra-	1A/	-a	0d/	di-	.	1f/	Ma-	1.dd\	gra-
!LO:LB:g=original	!	!	!	!	!	!	!	!	!	!
1G\	-ti-	1B/	ple-	.	.	.	1g\	-ri-	.	.
.	.	.	.	.	.	.	.	.	2dd\	-ti-
=54-	=54-	=54-	=54-	=54-	=54-	=54-	=54-	=54-	=54-	=54-
2.D/	-a	2A/	-na	1d/	-xit	.	1a\	-a	0dd\	-a
.	.	1d\	Do-	.	.	.	.	.	.	.
4E\	.	.	.	.	.	.	.	.	.	.
4F\	.	.	.	1r	.	.	0r	.	.	.
4D\	.	.	.	.	.	.	.	.	.	.
2.G\	ple-	2d\	-mi-	.	.	.	.	.	.	.
=55-	=55-	=55-	=55-	=55-	=55-	=55-	=55-	=55-	=55-	=55-
.	.	1B/	-n(us)	0g\	gra-	.	.	.	0r	.
4F\	.	.	.	.	.	.	.	.	.	.
4E\	.	.	.	.	.	.	.	.	.	.
4D\	.	.	.	.	.	.	.	.	.	.
1E\	.	1c\	te-	.	.	.	1e/	gra-	.	.
=56-	=56-	=56-	=56-	=56-	=56-	=56-	=56-	=56-	=56-	=56-
1D\	-na	1d\	-cu(m)	1.f\	.	.	1a\	-ti-	1dd\	ple-
1rBB	.	1A/	be-	.	.	.	1a\	-a	1cc\	-na
.	.	.	.	2e/	-ti-	.	.	.	.	.
=57-	=57-	=57-	=57-	=57-	=57-	=57-	=57-	=57-	=57-	=57-
1D\	te-	1.d\	-ne-	1f\	-a	.	1a\	ple-	0dd\	Do-
2.G\	.	.	.	1.g\	ple-	.	1d/	-na	.	.
.	.	2B/	.	.	.	.	.	.	.	.
4F\	.	.	.	.	.	.	.	.	.	.
=58-	=58-	=58-	=58-	=58-	=58-	=58-	=58-	=58-	=58-	=58-
2E\	-cum	2c/	.	.	.	.	1r	.	2ee\	-mi-
2D/	.	2.d\	-di-	2f\	.	.	.	.	2.ff\	-nus
1rBB	.	.	.	0d/	-na	.	1.f/	Do-	.	.
.	.	4c\	.	.	.	.	.	.	4ee\	.
.	.	4B/	.	.	.	.	.	.	4dd\	.
.	.	4A/	.	.	.	.	.	.	4cc\	.
=59-	=59-	=59-	=59-	=59-	=59-	=59-	=59-	=59-	=59-	=59-
1D\	be-	2B/	.	.	.	.	.	.	1dd\	te-
.	.	1A/	.	.	.	.	2f/	-mi:-	.	.
!	!	!	!	!	!	!	!LO:LB:g=original	!	!	!
1.AA/	-ne-	.	.	0a\	.	.	2e/	-n(us)	2.cc\	-cum
.	.	2G/	.	.	.	.	1e/	te-	.	.
.	.	.	.	.	.	.	.	.	4b\	.
=60-	=60-	=60-	=60-	=60-	=60-	=60-	=60-	=60-	=60-	=60-
.	.	1F/	-cta	.	.	.	.	.	2cc\	be-
2BB/	-di-	.	.	.	.	.	2d/	-cu(m)	2dd\	-ne-
1C/	-cta	1E/	tu	1g\	Do-	.	1e/	be-	2cc\	-di-
.	.	.	.	.	.	.	.	.	2b\	-cta
*	*	*	*	*	*	*	*clefC2	*	*	*
=61-	=61-	=61-	=61-	=61-	=61-	=61-	=61-	=61-	=61-	=61-
1D\	.	2.F/	in	1f\	-mi-	.	2.A/ 2.F/	-ne-	1.a/	tu
.	.	4G/	.	.	.	.	4B/	-di-	.	.
1rBB	.	2A/	.	2e/	-n(us)	.	2c/	-cta	.	.
!	!	!LO:SIC:v:s=2B-	!	!	!	!	!	!	!	!
.	.	2B/	.	2d/	te-	.	2d/	tu	2g/	.
=62-	=62-	=62-	=62-	=62-	=62-	=62-	=62-	=62-	=62-	=62-
2r	.	1A/	mu-	1c/	-cu(m)	.	2e\	in	2a/	in
2A\	in	.	.	.	.	.	2f\	mu-	2cc\	mu-
2G\	Mu-	2B/	-li-	0d/	be-	.	2g\|	-li-	2b\	-li-
!	!	!	!	!	!	!	!LO:N:vis=2.	!	!	!
2F\	-li-	2c/	.	.	.	.	2a\	-e-	2.a/	-e-
=63-	=63-	=63-	=63-	=63-	=63-	=63-	=63-	=63-	=63-	=63-
0D\	-e-	2d\	-e-	.	.	.	2.f\	-ri-	.	.
.	.	.	.	.	.	.	.	.	4g/	.
.	.	2A/	.	.	.	.	.	.	4f/	.
.	.	.	.	.	.	.	4g\	.	4e/	.
!	!	!	!	!LO:LB:g=original	!	!	!	!	!	!
.	.	2.F/	.	1f\	-ne-	.	1a\	-bus	2d/	.
.	.	.	.	.	.	.	.	.	1dd\	.
.	.	4G/	-ri-	.	.	.	.	.	.	.
=64-	=64-	=64-	=64-	=64-	=64-	=64-	=64-	=64-	=64-	=64-
0AA/	.	0A/	-b(us)	0e\	-di-	.	1r	.	.	.
!	!	!	!	!	!	!	!	!	!LO:SIC:v:s=4cc#	!
.	.	.	.	.	.	.	.	.	4cc\	.
.	.	.	.	.	.	.	.	.	4b\	.
!	!	!	!	!	!	!	!	!	!LO:SIC:v:s=1cc#	!
.	.	.	.	.	.	.	1.a\	Quae	1cc\	-ri-
=65-	=65-	=65-	=65-	=65-	=65-	=65-	=65-	=65-	=65-	=65-
1.D\	.	1rA	.	0d/	-cta	.	.	.	1dd\	-b(us)
.	.	.	.	.	.	.	1f\	cum	.	.
!	!	!LO:LB:g=original	!	!	!	!	!	!	!	!
.	.	0A/	Quae	.	.	.	.	.	1rg	.
4C/	.	.	.	.	.	.	4e\	.	.	.
4BB/	.	.	.	.	.	.	4d\	.	.	.
=66-	=66-	=66-	=66-	=66-	=66-	=66-	=66-	=66-	=66-	=66-
*	*	*	*	*	*	*	*clefC1	*	*	*
*	*	*	*	*	*	*	*LO:CL:ed	*	*	*
!	!	!	!	!	!	!	!LO:TX:t=P:problem=brak zmiany kluczy w źródle	!	!	!
2AA/	.	.	.	0r	.	.	2e/	au-	0a/	Quae
2D/	.	.	.	.	.	.	2f/	-diſ-	.	.
2C/	-ri-	1A/	cu(m)	.	.	.	2e/	-set	.	.
2D/	-buſ	.	.	.	.	.	1f/	.	.	.
!LO:LB:g=original	!	!	!	!	!	!	!	!	!LO:LB:g=original	!
=67-	=67-	=67-	=67-	=67-	=67-	=67-	=67-	=67-	=67-	=67-
1r	.	1d\	au-	0f\	Quae	.	.	.	1a/	cum
.	.	.	.	.	.	.	4e/	.	.	.
.	.	.	.	.	.	.	4d/	.	.	.
1D\	quae	1d\	-diſ-	.	.	.	1a\	.	0dd\	au-
=68-	=68-	=68-	=68-	=68-	=68-	=68-	=68-	=68-	=68-	=68-
1G\	cum	1B/	-set	0d/	cu(m)	.	0g\	tur-	.	.
1B\	au-	1G/	tur-	.	.	.	.	.	1dd\	-diſ-
=69-	=69-	=69-	=69-	=69-	=69-	=69-	=69-	=69-	=69-	=69-
0A\	-diſ-	1.c\	-ba-	0e\	au-	.	0a\	.	1cc\	-set
.	.	.	.	.	.	.	.	.	1cc\	tur-
.	.	4B/	.	.	.	.	.	.	.	.
.	.	4A/	-ta	.	.	.	.	.	.	.
=70-	=70-	=70-	=70-	=70-	=70-	=70-	=70-	=70-	=70-	=70-
1D\	-ſet	1A/	eſt	0.d/	-diſ-	.	1f/	-ba-	2.dd\	-ba-
.	.	.	.	.	.	.	.	.	4cc\	.
2G\	tur-	0rA	.	.	.	.	2g/	.	2b/	.
2F\	-ba-	.	.	.	.	.	2.a/	.	2a/	.
=71-	=71-	=71-	=71-	=71-	=71-	=71-	=71-	=71-	=71-	=71-
1G\	-ta	.	.	.	.	.	.	.	1b\	.
.	.	.	.	.	.	.	4g/	.	.	.
.	.	.	.	.	.	.	1g\	-ta	.	.
1A\	.	2r	.	1c/	-set	.	.	.	1cc\	-ta
!	!	!	!	!	!	!	!LO:SIC:v:s=2f#	!	!	!
.	.	2A/	in	.	.	.	2f/	.	.	.
=72-	=72-	=72-	=72-	=72-	=72-	=72-	=72-	=72-	=72-	=72-
2.G\	eſt	1B/	ſer-	1d/	in	.	1g\	eſt	2b/	eſt
.	.	.	.	.	.	.	.	.	2.dd\	in
4F\	.	.	.	.	.	.	.	.	.	.
!	!	!	!	!	!	!	!LO:LB:g=original	!	!	!
1D\	in	2A/	-mo-	1f\	fer-	.	0a\	in	.	.
.	.	.	.	.	.	.	.	.	4cc\	.
.	.	2d\	.	.	.	.	.	.	4a/	.
.	.	.	.	.	.	.	.	.	4b\	.
=73-	=73-	=73-	=73-	=73-	=73-	=73-	=73-	=73-	=73-	=73-
1A\	ſer-	2.c/	-ne	1e\	-mo-	.	.	.	4cc\	.
.	.	.	.	.	.	.	.	.	4dd\	.
.	.	.	.	.	.	.	.	.	2.cc\	Ser-
!	!	!LO:SIC:v:s=4B	!	!	!	!	!	!	!	!
.	.	4A/	.	.	.	.	.	.	.	.
2.F\	-mo-	1A/	.	1.a\	.	.	1cc\	fer-	.	.
.	.	.	.	.	.	.	.	.	4b/	.
.	.	.	.	.	.	.	.	.	4a/	.
4E\	.	.	.	.	.	.	.	.	4g/	.
=74-	=74-	=74-	=74-	=74-	=74-	=74-	=74-	=74-	=74-	=74-
1D\	-ne	1d\	e-	.	.	.	2dd\	-mo-	4f/	.
.	.	.	.	.	.	.	.	.	4d/	.
.	.	.	.	2f\	-ne	.	2a\	-ne	2.dd\	-mo-
2r	.	1G/	.	1.g\	e-	.	1b\	e-	.	.
.	.	.	.	.	.	.	.	.	4cc\	.
2.G\	et	.	.	.	.	.	.	.	4b\	.
.	.	.	.	.	.	.	.	.	4a\	.
=75-	=75-	=75-	=75-	=75-	=75-	=75-	=75-	=75-	=75-	=75-
.	.	1d\	-iuſ	.	.	.	1dd\	.	2b/	.
4F\	.	.	.	.	.	.	.	.	.	.
2D/	co-	.	.	2f\	.	.	.	.	1a/	-ne
2A\	-gi-	0r	.	2e/	.	.	2cc\	-iuſ	.	.
2B\	-ta-	.	.	2d/	-iuſ	.	1dd\	Ne	2g/	e-
=76-	=76-	=76-	=76-	=76-	=76-	=76-	=76-	=76-	=76-	=76-
2.A\	.	.	.	0e\	et	.	.	.	0a/	.
!	!	!	!	!	!	!	!LO:SIC:v:s=4cc#	!	!	!
.	.	.	.	.	.	.	4cc\	.	.	.
4G\	.	.	.	.	.	.	4b\	.	.	.
!	!	!	!	!	!	!	!LO:SIC:v:s=1cc#	!	!	!
1A\	-bat	1r	.	.	.	.	1cc\	.	.	.
=77-	=77-	=77-	=77-	=77-	=77-	=77-	=77-	=77-	=77-	=77-
!LO:TX:t=P:problem=kreska na 1 polu [rozdzielacz słów / znak oddechu]	!	!	!	!LO:TX:a:t=4	!	!	!	!	!	!
1D\,<	qua-	1A/	et	00d/	a-	.	1dd\	ti-	1f/	-iüs
2.G\	-liſ	2B/	a-	.	.	.	1b\	-me-	2re	.
.	.	2G/	.	.	.	.	.	.	2d/	ne
4G\	eſ-	.	.	.	.	.	.	.	.	.
=78-	=78-	=78-	=78-	=78-	=78-	=78-	=78-	=78-	=78-	=78-
2D/	-ſet	1A/	-it	.	.	.	1a\	-as	1f/	ti-
!LO:SIC:v:l:s=is-	!	!	!	!	!	!	!	!	!	!
2D/	y-	.	.	.	.	.	.	.	.	.
*	*	*	*	*	*	*	*	*	*custos:a	*
2.G\	-ta	1B/	an-	.	.	.	0r	.	1g/	-me-
4G\	.	.	.	.	.	.	.	.	.	.
!	!	!	!	!	!	!	!	!	!LO:LB:g=original	!
=79-	=79-	=79-	=79-	=79-	=79-	=79-	=79-	=79-	=79-	=79-
[2D/	Sa-	2A/	.	0d/	-it	.	.	.	1a/	-as
!LO:LB:g=original	!	!	!	!	!	!	!	!	!	!
4D/]	.	2.A/	-ge-	.	.	.	.	.	.	.
4C/	-lu-	.	.	.	.	.	.	.	.	.
2BB/	-ta-	.	.	.	.	.	1r	.	1dd\	Ma-
!	!	!LO:SIC:v:s=4F#	!	!	!	!	!	!	!	!
.	.	4F/	-lus	.	.	.	.	.	.	.
!	!	!LO:LB:g=original	!	!	!	!	!	!	!	!
!	!	!LO:SIC:v:s=2G#	!	!	!	!	!	!	!	!
2BB/	-ti-	2G/	e-	.	.	.	.	.	.	.
=80-	=80-	=80-	=80-	=80-	=80-	=80-	=80-	=80-	=80-	=80-
1AA/	-o	2.A/	.	00r	.	.	2re	.	2.cc\	-ri-
.	.	.	.	.	.	.	2.e/	Ma-	.	.
.	.	4B/	.	.	.	.	.	.	8b/L	.
.	.	.	.	.	.	.	.	.	8a/J	.
00r	.	4c\	.	.	.	.	.	.	1g/	-a
.	.	4d\	.	.	.	.	4f/	.	.	.
.	.	2.e\	.	.	.	.	4g\	.	.	.
.	.	.	.	.	.	.	4a\	.	.	.
=81-	=81-	=81-	=81-	=81-	=81-	=81-	=81-	=81-	=81-	=81-
.	.	.	.	.	.	.	2b\	.	2rg	.
.	.	4d\	.	.	.	.	.	.	.	.
.	.	2f\	.	.	.	.	2a\	.	2a/	in-
.	.	2e\	.	.	.	.	2g/	.	2b/	-ve-
.	.	2c/	.	.	.	.	1a\	.	2cc\	-ni-
!	!	!	!	!LO:LB:g=original	!	!	!	!	!	!
=82-	=82-	=82-	=82-	=82-	=82-	=82-	=82-	=82-	=82-	=82-
.	.	1B/	.	0d/	an-	.	.	.	2dd\	-ſti
.	.	.	.	.	.	.	2g/	-ri-	1dd\	gra-
1D\	ec-	1A/	.	.	.	.	0.a\	-a	.	.
.	.	.	.	.	.	.	.	.	4cc\	.
.	.	.	.	.	.	.	.	.	4b\	.
=83-	=83-	=83-	=83-	=83-	=83-	=83-	=83-	=83-	=83-	=83-
2AA/	-ce	0A/	i	1e\	-ge-	.	.	.	1cc\	-ti-
2AA/	con-	.	.	.	.	.	.	.	.	.
2.D/	-ci-	.	.	0f\	-lus	.	.	.	2.dd\	-am
4E\	.	.	.	.	.	.	.	.	4cc\	.
=84-	=84-	=84-	=84-	=84-	=84-	=84-	=84-	=84-	=84-	=84-
4F\	.	00r	.	.	.	.	2.A/	Ec-	2a/	.
4G\	.	.	.	.	.	.	.	.	.	.
2.A\	.	.	.	.	.	.	.	.	2.cc\	a-
.	.	.	.	.	.	.	4B/	.	.	.
.	.	.	.	2e/	.	.	2c/	-ce	.	.
4G\	-pi-	.	.	.	.	.	.	.	4b/	.
!LO:SIC:v:s=2B-	!	!	!	!	!	!	!	!	!	!
2B\	-es	.	.	2d/	.	.	2d/	con-	2g/	-püd
=85-	=85-	=85-	=85-	=85-	=85-	=85-	=85-	=85-	=85-	=85-
2.A\	in	.	.	1.c/	.	.	2.e/	-ci-	4a\	De-
.	.	.	.	.	.	.	.	.	4b\	.
.	.	.	.	.	.	.	.	.	4cc\	.
8G\L	.	.	.	.	.	.	4f/	-pi-	4dd\	.
8F\J	.	.	.	.	.	.	.	.	.	.
2E\	u-	.	.	.	.	.	1g\,<	-es	4ee\	.
.	.	.	.	.	.	.	.	.	4ff\	.
2E\	-te-	.	.	2B/	.	.	.	.	4gg\	.
.	.	.	.	.	.	.	.	.	4ee\	.
=86-	=86-	=86-	=86-	=86-	=86-	=86-	=86-	=86-	=86-	=86-
1D\	-ro	00r	.	1.d/	Fi-	.	2.a\	et	2.ff\	.
*	*	*	*	*	*	*	*custos:f	*	*	*
.	.	.	.	.	.	.	4g\	.	4ee\	.
!	!	!	!	!	!	!	!LO:LB:g=original	!	!	!
0r	.	.	.	.	.	.	4f/	.	4dd\	.
.	.	.	.	.	.	.	4e/	.	4cc\	.
.	.	.	.	2c/	-li-	.	2.g/	pa-	1ee\	.
=87-	=87-	=87-	=87-	=87-	=87-	=87-	=87-	=87-	=87-	=87-
.	.	.	.	1B/	-um	.	.	.	.	.
.	.	.	.	.	.	.	4f/	.	.	.
.	.	.	.	.	.	.	4e/	.	1dd\	.
.	.	.	.	.	.	.	4d/	.	.	.
1r	.	.	.	1A/	.	.	1e/	-ri-	.	.
!	!	!	!	!	!	!	!	!	!LO:SIC:v:s=2cc#	!
.	.	.	.	.	.	.	.	.	2cc\	.
!	!	!	!	!	!	!	!	!	!LO:LB:g=original	!
=88-	=88-	=88-	=88-	=88-	=88-	=88-	=88-	=88-	=88-	=88-
0D\	et	1A/	et	0d/	et	.	2d/	-es	1dd\	-um
.	.	.	.	.	.	.	1f/	.	.	.
.	.	1.A/	Vo-	.	.	.	.	.	2.a/	et
.	.	.	.	.	.	.	4e/	.	.	.
.	.	.	.	.	.	.	4d/	.	4b\	.
=89-	=89-	=89-	=89-	=89-	=89-	=89-	=89-	=89-	=89-	=89-
1.AA/	Vo-	.	.	1.c/	Vo-	.	1e/	Fi-	4cc\	.
.	.	.	.	.	.	.	.	.	4dd\	.
.	.	2G/	.	.	.	.	.	.	1ee\	.
.	.	1F/	-ca-	.	.	.	1a\	-li-	.	.
2BB/	.	.	.	2d/	.	.	.	.	2dd\	Vo-
=90-	=90-	=90-	=90-	=90-	=90-	=90-	=90-	=90-	=90-	=90-
1C/	-ca-	1E/	-bis	1e\	-ca-	.	1g\	-um	2cc\	-ca-
.	.	.	.	.	.	.	.	.	2b/	.
1D\	-bis	1A/	no-	1f\	-bis	.	1r	.	1a/	.
=91-	=91-	=91-	=91-	=91-	=91-	=91-	=91-	=91-	=91-	=91-
1E\	no-	2c/	-men	1g\	no-	.	1e/	et	1g/	bis
.	.	2B/	.	.	.	.	.	.	.	.
1F\	-men	1A/	.	2f\	-men	.	1a\	Vo-	1cc\	no-
.	.	.	.	2e/	.	.	.	.	.	.
=92-	=92-	=92-	=92-	=92-	=92-	=92-	=92-	=92-	=92-	=92-
1G\	e-	1B/	e-	1d/	e-	.	1g\	.	2b/	-men,
.	.	.	.	.	.	.	.	.	1g/	e-
1A\	-i(us)	2c/	.	1c/	-i(us)	.	1cc\	-ca-	.	.
!	!	!	!	!	!	!	!	!	!LO:SIC:v:s=2f#	!
.	.	2A/	.	.	.	.	.	.	2f/	.
=93-	=93-	=93-	=93-	=93-	=93-	=93-	=93-	=93-	=93-	=93-
1G\	JE-	4B/	.	1d/	.	.	1b\	-bis	1g/	-i(us)
.	.	4c\	.	.	.	.	.	.	.	.
.	.	4d\	.	.	.	.	.	.	.	.
.	.	4B/	.	.	.	.	.	.	.	.
!LO:LB:g=original	!	!	!	!	!	!	!	!	!	!
2F\	.	2c/	.	1f\	JE-	.	2a\	no-	1rg	.
2D/	.	2d/	.	.	.	.	1a\	-men	.	.
=94-	=94-	=94-	=94-	=94-	=94-	=94-	=94-	=94-	=94-	=94-
1E\	.	1B/	-ius	0e\	.	.	.	.	1b\	Je-
!	!	!	!	!	!	!	!LO:SIC:v:s=2g#	!	!	!
.	.	.	.	.	.	.	2g/	.	.	.
!	!	!LO:LB:g=original	!	!	!	!	!	!	!	!
1AA/	.	0A/	JE-	.	.	.	1a\	e-	1cc\	.
!	!	!	!	!LO:LB:g=original	!	!	!	!	!	!
=95-	=95-	=95-	=95-	=95-	=95-	=95-	=95-	=95-	=95-	=95-
*lig	*	*	*	*	*	*	*	*	*	*
!LO:TX:t=P:global:problem=przyjęto ligaturę c.o.p.	!	!	!	!	!	!	!	!	!	!
!LO:TX:a:t=2	!	!	!	!LO:TX:t=P:problem=brak taktów(?) nr 95-96	!	!	!	!	!	!
0D\	.	.	.	0ryy	.	.	2.f/	-iuſ	2dd\	.
.	.	.	.	.	.	.	.	.	2.ff\	.
.	.	.	.	.	.	.	4g/	.	.	.
.	.	1F/	.	.	.	.	2a\	.	.	.
.	.	.	.	.	.	.	.	.	4ee\	.
!	!	!	!	!	!	!	!LO:SIC:v:s=2.b-	!	!	!
.	.	.	.	.	.	.	2.b\	JE-	2.dd\	.
=96-	=96-	=96-	=96-	=96-	=96-	=96-	=96-	=96-	=96-	=96-
!LO:TX:a:t=2	!	!	!	!	!	!	!	!	!	!
0GG/	.	0G/	.	0ryy	.	.	.	.	.	.
.	.	.	.	.	.	.	4a\	.	4cc\	.
.	.	.	.	.	.	.	4g\	.	4b\	.
.	.	.	.	.	.	.	4f\	.	4a\	.
.	.	.	.	.	.	.	1g\	.	1b\	.
!	!	!	!	!	!	!	!	!	!LO:SIC:v:s=1b-	!
!	!	!	!	!	!	!	!	!	!LO:SIC:v:s=4b-	!
*Xlig	*	*	*	*	*	*	*	*	*	*
=97-	=97-	=97-	=97-	=97-	=97-	=97-	=97-	=97-	=97-	=97-
00D\;;	-SUM.	00A/;;	-SUM	00d/;;	-SUM	.	00f/;;	-SUM	00a/;;	-ſum.
=98-	=98-	=98-	=98-	=98-	=98-	=98-	=98-	=98-	=98-	=98-
!	!	!	!	!	!	!	!LO:LB:g=original	!	!LO:LB:g=original	!
*	*	*clefC4	*	*	*	*	*	*	*	*
=99||-	=99||-	=99||-	=99||-	=99||-	=99||-	=99||-	=99||-	=99||-	=99||-	=99||-
*M2/1	*	*M2/1	*	*M2/1	*	*	*M2/1	*	*M2/1	*
*met(C|)	*	*met(C|)	*	*met(C|)	*	*	*met(C|)	*	*met(C|)	*
!	!	!	!	!LO:TX:t=P:problem=oznaczenie metryczne C|	!	!	!	!	!	!
!LO:TX:t=P:problem=oznaczenie metryczne C|	!	!LO:TX:t=P:problem=oznaczenie metryczne C|	!	!LO:TX:a:t=4	!	!	!LO:TX:t=P:problem=oznaczenie metryczne C|	!	!LO:TX:t=P:problem=oznaczenie metryczne C|	!
1D\	Hic	1F/	Hic	00A/	Hic	.	1d/	Hic	1a/	Hic
1D\	e-	1F/	e-	.	.	.	1d/	e-	1a/	e-
=100-	=100-	=100-	=100-	=100-	=100-	=100-	=100-	=100-	=100-	=100-
1AA/	-rit	1E/	-rit	.	.	.	1e/	-rit	1cc\	-rit
1D\	Ma-	1F/	Ma-	.	.	.	1d/	.	1dd\	Ma-
=101-	=101-	=101-	=101-	=101-	=101-	=101-	=101-	=101-	=101-	=101-
*lig	*	*	*	*	*	*	*	*	*	*
1GG/	.	4G/	.	0B/	e-	.	2d/	Ma-	1dd\	-gn(us)
.	.	4A/	.	.	.	.	.	.	.	.
.	.	4B\	.	.	.	.	2.g/	.	.	.
.	.	4c\	.	.	.	.	.	.	.	.
1G\	.	2d\	.	.	.	.	.	.	1r	.
.	.	.	.	.	.	.	4f/	.	.	.
!	!	!	!	!	!	!	!LO:N:vis=2.	!	!	!
.	.	2.e\	.	.	.	.	2g/	.	.	.
!	!	!LO:TX:t=P:problem=kreska po nucie [przyjęto kropkę ze względu na podział rytmiczny]	!	!	!	!	!	!	!	!
*Xlig	*	*	*	*	*	*	*	*	*	*
=102-	=102-	=102-	=102-	=102-	=102-	=102-	=102-	=102-	=102-	=102-
1A\	-gn(us)	.	.	0c/	-rit	.	2.e/	.	0cc\	et
.	.	4d\	.	.	.	.	.	.	.	.
.	.	4c\	.	.	.	.	.	.	.	.
.	.	4B\	.	.	.	.	4d/	.	.	.
1A\	et	1A\	-gn(us)	.	.	.	2e/	.	.	.
.	.	.	.	.	.	.	2f/	.	.	.
=103-	=103-	=103-	=103-	=103-	=103-	=103-	=103-	=103-	=103-	=103-
1G\	Fi-	0B\	et	0d/	Ma-	.	1g\	-gn(us)	1b\	Fi-
1G\	-li-	.	.	.	.	.	1g\	et	1b\	-li-
=104-	=104-	=104-	=104-	=104-	=104-	=104-	=104-	=104-	=104-	=104-
1F\	-us	1.c\	Fi-	0f\	-gn(us)	.	1a\	Fi-	1a/	-(us)
1F\	al-	.	.	.	.	.	1a\	-li-	1cc\	al-
.	.	2c\	-li-	.	.	.	.	.	.	.
!LO:LB:g=original	!	!	!	!	!	!	!	!	!	!
=105-	=105-	=105-	=105-	=105-	=105-	=105-	=105-	=105-	=105-	=105-
1.C/	-tiſ-	1c\	-(us)	0e\	et	.	0g\	-(us)	1.cc\	-tiſ-
.	.	1G/	al-	.	.	.	.	.	.	.
2C/	-I-	.	.	.	.	.	.	.	2cc\	-si-
!	!	!LO:LB:g=original	!	!	!	!	!	!	!	!
=106-	=106-	=106-	=106-	=106-	=106-	=106-	=106-	=106-	=106-	=106-
1C/	-mi	1.E/	-tiſ-	0e\	Fi-	.	1g\	al-	1cc\	-mi
1C/	Vo-	.	.	.	.	.	1.g\	-tiſ-	2cc/	Vo-
.	.	2F/	-si-	.	.	.	.	.	1cc\	-ca-
=107-	=107-	=107-	=107-	=107-	=107-	=107-	=107-	=107-	=107-	=107-
0GG/	-ca-	0G/	-mi	0d/	-li-	.	.	.	.	.
.	.	.	.	.	.	.	2g/	-si-	4b\	.
.	.	.	.	.	.	.	.	.	4a\	.
.	.	.	.	.	.	.	0g\	-mi	2b/	.
.	.	.	.	.	.	.	.	.	2.dd\	.
=108-	=108-	=108-	=108-	=108-	=108-	=108-	=108-	=108-	=108-	=108-
0G\	.	1r	.	1d/	-us	.	.	.	.	.
.	.	.	.	.	.	.	.	.	4cc\	.
.	.	.	.	.	.	.	.	.	4b\	.
.	.	.	.	.	.	.	.	.	4a/	.
.	.	1d\	Vo-	1B/	al-	.	1g\	Vo-	1b\	-bi-
=109-	=109-	=109-	=109-	=109-	=109-	=109-	=109-	=109-	=109-	=109-
*	*	*	*	*	*	*	*	*	*custos:cc	*
1A\	.	2c\	.	1.c/	-tiſ-	.	1e/	-ca-	0a/	-tur.
.	.	2.A/	-ca-	.	.	.	.	.	.	.
1F\	.	.	.	.	.	.	1f/	-bi-	.	.
.	.	4G/	-bi-	.	.	.	.	.	.	.
.	.	2A\	-tur	2d/	-si-	.	.	.	.	.
!	!	!	!	!	!	!	!	!	!LO:PB:g=original	!
=110-	=110-	=110-	=110-	=110-	=110-	=110-	=110-	=110-	=110-	=110-
1E\	-bi-	2B\	.	1e\	-mi	.	1g\	-tur	1rg	.
.	.	2c\	et	.	.	.	.	.	.	.
1D\	-tur	1d\	da-	1f\	Vo-	.	2r	.	1dd\	et
.	.	.	.	.	.	.	2a\	et	.	.
!	!	!	!	!LO:LB:g=original	!	!	!	!	!	!
=111-	=111-	=111-	=111-	=111-	=111-	=111-	=111-	=111-	=111-	=111-
00r	.	1c\	-bit	1g\	-ca-	.	2cc\	da-	1.ee\	da-
.	.	.	.	.	.	.	2.cc\	-bit	.	.
.	.	2A/	il-	0a\	.	.	.	.	.	.
.	.	.	.	.	.	.	4b\	.	.	.
!	!	!	!	!	!	!	!LO:LB:g=original	!	!	!
.	.	2.d\	.	.	.	.	4a\	.	2.ff\	-bit
.	.	.	.	.	.	.	4g\	.	.	.
=112-	=112-	=112-	=112-	=112-	=112-	=112-	=112-	=112-	=112-	=112-
.	.	.	.	.	.	.	2f/	il-	.	.
.	.	4c\	.	.	.	.	.	.	4ee\	.
.	.	2A/	-li	.	.	.	2e/	-li	2cc\	e-
.	.	2B\	Do-	1g\	.	.	2d/	De-	2dd\	-i
.	.	2c\	.	.	.	.	2.c/	-(us)	2ee\	Do-
=113-	=113-	=113-	=113-	=113-	=113-	=113-	=113-	=113-	=113-	=113-
*	*	*lig	*	*	*	*	*	*	*	*
00r	.	1A\	.	1a\	.	.	.	.	4ee\	.
.	.	.	.	.	.	.	4d/	.	4dd\	.
.	.	.	.	.	.	.	2e/	.	4cc\	.
.	.	.	.	.	.	.	.	.	4b\	.
.	.	1d\	.	1f\	-bi-	.	2f/	ſe-	2.a/	.
.	.	.	.	.	.	.	1a\	.	.	.
.	.	.	.	.	.	.	.	.	4b\	-mi-
*	*	*Xlig	*	*	*	*	*	*	*	*
=114-	=114-	=114-	=114-	=114-	=114-	=114-	=114-	=114-	=114-	=114-
.	.	2c\	-mi-	0e\	-tur	.	.	.	2cc\	-n(us)
.	.	2B\	-n(us)	.	.	.	2g/	.	1dd\	De-
.	.	1A\	De-	.	.	.	0a\	-dem	.	.
!	!	!	!	!	!	!	!	!	!LO:SIC:v:s=2cc#	!
.	.	.	.	.	.	.	.	.	2cc\	.
=115-	=115-	=115-	=115-	=115-	=115-	=115-	=115-	=115-	=115-	=115-
!	!	!	!	!LO:TX:a:t=4	!	!	!	!	!	!
0D\	et	0A\	-(us)	00d/	.	.	.	.	2dd\	.
.	.	.	.	.	.	.	.	.	2a/	-us
.	.	.	.	.	.	.	1f/	Da-	2a/	ſe-
.	.	.	.	.	.	.	.	.	2a/	-dem
=116-	=116-	=116-	=116-	=116-	=116-	=116-	=116-	=116-	=116-	=116-
0G\	re-	0r	.	.	.	.	2.g/	-vid	2.b-X/	Da-
.	.	.	.	.	.	.	4a\	.	4a/	.
.	.	.	.	.	.	.	4b\	.	2g/	.
.	.	.	.	.	.	.	4cc\	.	.	.
.	.	.	.	.	.	.	1dd\	pa-	2f/	-vid
=117-	=117-	=117-	=117-	=117-	=117-	=117-	=117-	=117-	=117-	=117-
1A\	-gna-	1r	.	00r	.	.	.	.	1e/	Pa-
!	!	!	!	!	!	!	!LO:SIC:v:s=2cc#	!	!	!
.	.	.	.	.	.	.	2cc\	.	.	.
!LO:SIC:v:s=2.B-	!	!	!	!	!	!	!	!	!	!
1.B\	.	1.G/	et	.	.	.	2dd\	.	1d/	-tris
.	.	.	.	.	.	.	1d/	-tris	.	.
=118-	=118-	=118-	=118-	=118-	=118-	=118-	=118-	=118-	=118-	=118-
.	.	.	.	.	.	.	.	.	2g/	e-
2A\	.	2A/	.	.	.	.	2c/	e-	2f/	.
!	!	!LO:SIC:v:s=1B-	!	!	!	!	!	!	!	!
1G\	-bit	1B\	Re-	.	.	.	2d/	.	1g/	-ius
.	.	.	.	.	.	.	2e/	.	.	.
=119-	=119-	=119-	=119-	=119-	=119-	=119-	=119-	=119-	=119-	=119-
*	*	*custos:F	*	*	*	*	*	*	*	*
*	*	*	*	*	*	*	*	*	*lig	*
!	!	!	!	!	!	!	!	!	!LO:TX:t=P:global:problem=przyjęto ligaturę c.o.p.	!
1.F\	in	0c\	-gni	0.f\	Da-	.	2f/	.	1a/	Quo-
.	.	.	.	.	.	.	1a\	.	.	.
.	.	.	.	.	.	.	.	.	1cc\	.
2E\	.	.	.	.	.	.	2g/	.	.	.
*	*	*	*	*	*	*	*	*	*Xlig	*
!	!	!LO:PB:g=original	!	!	!	!	!	!	!	!
=120-	=120-	=120-	=120-	=120-	=120-	=120-	=120-	=120-	=120-	=120-
1D\	Do-	1F/	e-	.	.	.	2a\	.	1dd\	.
.	.	.	.	.	.	.	2b\	.	.	.
!	!	!	!	!	!	!	!	!	!LO:TX:t=P:problem=fragment nieczytelny [defekt źródła]	!
1C/	-mo	2G/	-i(us)	1e\	-vid	.	1cc\	-iuſ	1ryy	.
.	.	1A\	non	.	.	.	.	.	.	.
!	!	!	!	!	!	!	!	!	!LO:LB:g=original	!
=121-	=121-	=121-	=121-	=121-	=121-	=121-	=121-	=121-	=121-	=121-
*	*	*	*	*	*	*	*	*	*lig	*
1D\	Ja-	.	.	0d/	Pa-	.	0r	.	1a/	.
.	.	4G/	.	.	.	.	.	.	.	.
.	.	4F/	.	.	.	.	.	.	.	.
1BB/	-cob	1G/	.	.	.	.	.	.	1b\	.
*	*	*	*	*	*	*	*	*	*Xlig	*
=122-	=122-	=122-	=122-	=122-	=122-	=122-	=122-	=122-	=122-	=122-
*lig	*	*	*	*	*	*	*	*	*	*
1AA/	et	0A\	e-	0c/	-tris	.	1.e/	Di-	0cc\	.
1A\	.	.	.	.	.	.	.	.	.	.
.	.	.	.	.	.	.	2f/	-xit	.	.
*Xlig	*	*	*	*	*	*	*	*	*	*
=123-	=123-	=123-	=123-	=123-	=123-	=123-	=123-	=123-	=123-	=123-
*	*	*	*	*	*	*	*custos:a	*	*	*
1G\	re-	1B\	-rit	1d/	e-	.	1g\	Au-	1b\	-mo-
*custos:A	*	*	*	*	*	*	*	*	*	*
!	!	!	!	!	!	!	!LO:PB:g=original	!	!	!
1F\	-gni	0c\	fi-	1.f\	.	.	2a\	-tem	0a/	-do
.	.	.	.	.	.	.	2b\	.	.	.
!LO:PB:g=original	!	!	!	!	!	!	!	!	!	!
=124-	=124-	=124-	=124-	=124-	=124-	=124-	=124-	=124-	=124-	=124-
1A\	e-	.	.	.	.	.	1cc\	Ma-	.	.
.	.	.	.	2e/	.	.	.	.	.	.
1G\	-i(us)	1d\	-nis	1.g\	.	.	1b\	-ri-	2re	.
.	.	.	.	.	.	.	.	.	2d/	fi-
=125-	=125-	=125-	=125-	=125-	=125-	=125-	=125-	=125-	=125-	=125-
1.c\	non	0r	.	.	.	.	2g/	-a	2e/	.
.	.	.	.	2f\	.	.	2.a\	ad	2f/	.
*	*	*	*	*	*	*	*	*	*lig	*
.	.	.	.	2e/	.	.	.	.	1g/	.
.	.	.	.	.	.	.	4g/	.	.	.
2B\	e-	.	.	2d/	.	.	1g\	An-	.	.
=126-	=126-	=126-	=126-	=126-	=126-	=126-	=126-	=126-	=126-	=126-
1A\	.	1r	.	1c/	-ius	.	.	.	1a/	.
.	.	.	.	.	.	.	2f/	-ge-	.	.
!	!	!	!	!	!	!	!LO:SIC:v:s=2f#	!	!	!
*	*	*	*	*	*	*	*	*	*Xlig	*
0G\	-rit	1d\	Quo-	2B/	di-	.	0g\	-lu(m)	0b\	.
.	.	.	.	2c/	-xit	.	.	.	.	.
=127-	=127-	=127-	=127-	=127-	=127-	=127-	=127-	=127-	=127-	=127-
*	*	*	*	*custos:d	*	*	*	*	*	*
.	.	1B\	-mo-	1d/	au-	.	.	.	.	.
!	!	!	!	!LO:PB:g=original	!	!	!	!	!	!
*	*	*	*	*	*	*	*	*	*lig	*
2.F\	fi-	0c\	-do	1f\	-tem	.	1rg	.	1a/	.
8E\L	.	.	.	.	.	.	.	.	.	.
8D\J	.	.	.	.	.	.	.	.	.	.
=128-	=128-	=128-	=128-	=128-	=128-	=128-	=128-	=128-	=128-	=128-
1C/	-nis	.	.	1e\	Ma-	.	1.g\	quo-	1cc\	.
*	*	*	*	*	*	*	*	*	*Xlig	*
0r	.	2G/	.	0d/	-ri-	.	.	.	2b/	-et
.	.	2F/	fi-	.	.	.	2a\	-mo-	2.a/	i-
=129-	=129-	=129-	=129-	=129-	=129-	=129-	=129-	=129-	=129-	=129-
.	.	1G/	-et	.	.	.	1b\	-d	.	.
.	.	.	.	.	.	.	.	.	4g/	.
.	.	.	.	.	.	.	.	.	1g/	.
1r	.	1A\	i-	1c/	-a	.	1cc\	fi-	.	.
!	!	!	!	!	!	!	!	!	!LO:SIC:v:s=2f#	!
.	.	.	.	.	.	.	.	.	2f/	.
=130-	=130-	=130-	=130-	=130-	=130-	=130-	=130-	=130-	=130-	=130-
(0GG/	quo-	0G/	-ſtud	1d/	ad	.	2b\	-et	1g/	-ſtud
.	.	.	.	.	.	.	2.dd\	i-	.	.
.	.	.	.	1B/	an-	.	.	.	1d/	quo-
.	.	.	.	.	.	.	4cc\	.	.	.
.	.	.	.	.	.	.	4b\	.	.	.
.	.	.	.	.	.	.	4a\	.	.	.
=131-	=131-	=131-	=131-	=131-	=131-	=131-	=131-	=131-	=131-	=131-
0.C/)	.	1G/	quo-	1.c/	-ge-	.	1g\	.	2.e/	.
.	.	.	.	.	.	.	.	.	4f/	-ni-
.	.	1G/	-ni-	.	.	.	2e/	-stud	1g/	-am
.	.	.	.	2d/	.	.	2.g/	quo-	.	.
=132-	=132-	=132-	=132-	=132-	=132-	=132-	=132-	=132-	=132-	=132-
.	.	2.c\	-am	0e\	-lum	.	.	.	1g/	Vi-
.	.	.	.	.	.	.	4f/	.	.	.
.	.	.	.	.	.	.	4e/	.	.	.
.	.	4B\	.	.	.	.	4d/	.	.	.
1C/	-ni-	2A/	.	.	.	.	2c/	-nia(m)	2cc\	.
.	.	2G/	Vi-	.	.	.	2g/	Vi-	2b/	.
=133-	=133-	=133-	=133-	=133-	=133-	=133-	=133-	=133-	=133-	=133-
0D\	-am	0d\	-ru(m):	0A/	.	.	2f/	-ru(m)	2a/	.
.	.	.	.	.	.	.	2g/	non	2g/	.
.	.	.	.	.	.	.	2.a\	co-	2.f/	-rum
.	.	.	.	.	.	.	4b\	.	8e/L	.
*	*	*	*	*	*	*	*	*	*custos:e	*
.	.	.	.	.	.	.	.	.	8d/J	.
!	!	!	!	!	!	!	!	!	!LO:LB:g=original	!
=134-	=134-	=134-	=134-	=134-	=134-	=134-	=134-	=134-	=134-	=134-
1C/	Vi-	1G/	.	0rc	.	.	1.cc\	-gno-	2e/	non
.	.	.	.	.	.	.	.	.	2g/	co-
1.F\	-rum	00r	.	.	.	.	.	.	1.a/	.
.	.	.	.	.	.	.	2b\	.	.	.
=135-	=135-	=135-	=135-	=135-	=135-	=135-	=135-	=135-	=135-	=135-
.	.	.	.	0c/	quo-	.	2a/	.	.	.
2G\	.	.	.	.	.	.	1g\	.	2b/	.
1A\	non	.	.	.	.	.	.	.	1.cc\	-gno-
!	!	!	!	!	!	!	!LO:SIC:v:s=2f#	!	!	!
.	.	.	.	.	.	.	2f/	.	.	.
!	!	!	!	!	!	!	!LO:LB:g=original	!	!	!
=136-	=136-	=136-	=136-	=136-	=136-	=136-	=136-	=136-	=136-	=136-
0G\	co-	.	.	0d/	-mo-	.	0g\	-ſco	.	.
.	.	.	.	.	.	.	.	.	4b/	.
.	.	.	.	.	.	.	.	.	4a/	.
.	.	1.G/	et	.	.	.	.	.	1b\	.
=137-	=137-	=137-	=137-	=137-	=137-	=137-	=137-	=137-	=137-	=137-
*lig	*	*	*	*	*	*	*	*	*	*
1C/	-gno-	.	.	1e\	-do	.	00r	.	1cc\	-ſco
.	.	2A/	reſ-	.	.	.	.	.	.	.
1E\	.	2G/	-pon-	1g\	fi-	.	.	.	1r	.
.	.	2c\	.	.	.	.	.	.	.	.
*Xlig	*	*	*	*	*	*	*	*	*	*
=138-	=138-	=138-	=138-	=138-	=138-	=138-	=138-	=138-	=138-	=138-
!	!	!LO:TX:t=P:problem=fragment nieczytelny [defekt źródła]	!	!	!	!	!	!	!	!
0D\	.	1ryy	.	0f\	-et	.	.	.	1dd\	et
!	!	!LO:LB:g=original	!	!	!	!	!	!	!	!
.	.	1B\	dens	.	.	.	.	.	1dd\	reſ-
=139-	=139-	=139-	=139-	=139-	=139-	=139-	=139-	=139-	=139-	=139-
*	*	*lig	*	*	*	*	*	*	*	*
0.C/	-ſco	1c\	.	0.e\	i-	.	0g\	et	1.ee\	-pon-
.	.	1.G/	An-	.	.	.	.	.	.	.
.	.	.	.	.	.	.	.	.	2dd\	-dens
*	*	*Xlig	*	*	*	*	*	*	*	*
=140-	=140-	=140-	=140-	=140-	=140-	=140-	=140-	=140-	=140-	=140-
.	.	.	.	.	.	.	1g\	reſ-	1cc\	an-
.	.	2A/	.	.	.	.	.	.	.	.
1G\	et	2B/	.	1d/	-ſtud	.	1g\	-pon-	1b\	-ge-
.	.	2G/	-ge-	.	.	.	.	.	.	.
=141-	=141-	=141-	=141-	=141-	=141-	=141-	=141-	=141-	=141-	=141-
2F\	reſ-	1.A\	-lus	0f\	et	.	1.c/	-dens	0a/	-l(us)
1F\	-pon-	.	.	.	.	.	.	.	.	.
4E\	.	4G/	.	.	.	.	2d/	.	.	.
4D\	.	4F/	.	.	.	.	.	.	.	.
=142-	=142-	=142-	=142-	=142-	=142-	=142-	=142-	=142-	=142-	=142-
1C/	-denſ	2G/	di-	1e\	reſ-	.	2e/	An-	1rg	.
.	.	2.A/	.	.	.	.	2c/	-ge-	.	.
!LO:LB:g=original	!	!	!	!	!	!	!	!	!	!
1.D\	.	.	.	0d/	-pon-	.	2.f/	-lus	1a/	di-
.	.	4G/	.	.	.	.	.	.	.	.
.	.	4F/	.	.	.	.	.	.	.	.
.	.	4E/	.	.	.	.	4g\	.	.	.
=143-	=143-	=143-	=143-	=143-	=143-	=143-	=143-	=143-	=143-	=143-
.	.	2D/	.	.	.	.	2a\	.	2f/	.
4C/	.	1G/	.	.	.	.	2b\	.	2g/	.
4BB/	.	.	.	.	.	.	.	.	.	.
1AA/	.	.	.	1c/	-denſ	.	2cc\	di-	1a/	-xit
!	!	!LO:SIC:v:s=2F#	!	!	!	!	!	!	!	!
.	.	2F/	.	.	.	.	2a\	-xit	.	.
=144-	=144-	=144-	=144-	=144-	=144-	=144-	=144-	=144-	=144-	=144-
*	*	*lig	*	*	*	*	*	*	*lig	*
0GG/	an-	1G/	.	1B/	An-	.	2b\	.	1d/	e-
.	.	.	.	.	.	.	2cc\	.	.	.
!	!	!	!	!LO:LB:g=original	!	!	!	!	!	!
.	.	1d\	-xit	1B/	-ge-	.	2dd\	e-	1g/	.
.	.	.	.	.	.	.	1g\	.	.	.
*	*	*Xlig	*	*	*	*	*	*	*Xlig	*
=145-	=145-	=145-	=145-	=145-	=145-	=145-	=145-	=145-	=145-	=145-
0D\	-ge-	0d\	e-	0A/	-lus	.	.	.	1.a/	i
.	.	.	.	.	.	.	4f/	.	.	.
.	.	.	.	.	.	.	4e/	.	.	.
.	.	.	.	.	.	.	1f/	-i	.	.
.	.	.	.	.	.	.	.	.	4g/	.
.	.	.	.	.	.	.	.	.	4f/	.
=146-	=146-	=146-	=146-	=146-	=146-	=146-	=146-	=146-	=146-	=146-
0C/	-l(us)	1G/	-i	1rA	.	.	1g\	di-	2e/	Spi-
.	.	.	.	.	.	.	.	.	2.g/	.
.	.	1rF	.	0c/	Spi-	.	2e/	-xit	.	.
.	.	.	.	.	.	.	.	.	4f/	.
.	.	.	.	.	.	.	2.cc\	e-	4e/	.
.	.	.	.	.	.	.	.	.	4d/	-ri-
=147-	=147-	=147-	=147-	=147-	=147-	=147-	=147-	=147-	=147-	=147-
0r	.	1A\	Spi-	.	.	.	.	.	1e/	-tus
.	.	.	.	.	.	.	4b\	.	.	.
.	.	.	.	.	.	.	1a\	.	.	.
!	!	!	!	!	!	!	!	!	!LO:LB:g=original	!
.	.	1B\	-ri-	1d/	-ri-	.	.	.	2rg	.
!	!	!	!	!	!	!	!LO:SIC:v:s=2g#	!	!	!
.	.	.	.	.	.	.	2g/	.	2.d/	San-
=148-	=148-	=148-	=148-	=148-	=148-	=148-	=148-	=148-	=148-	=148-
1D\	et	1A\	-tus	0f\	.	.	1a\	-i	.	.
.	.	.	.	.	.	.	.	.	4e/	.
.	.	.	.	.	.	.	.	.	4f/	.
.	.	.	.	.	.	.	.	.	4g/	.
4D\	Vir-	1d\	San-	.	.	.	2re	.	2.a/	.
4E\	.	.	.	.	.	.	.	.	.	.
4F\	.	.	.	.	.	.	1a\	Spi-	.	.
4G\	.	.	.	.	.	.	.	.	4b/	.
=149-	=149-	=149-	=149-	=149-	=149-	=149-	=149-	=149-	=149-	=149-
2.A\	-tus	1c\	-ct(us)	1e\	-tus	.	.	.	4cc\	.
.	.	.	.	.	.	.	.	.	4dd\	.
.	.	.	.	.	.	.	2a\	-ri-	2.ee\	.
4B\	.	.	.	.	.	.	.	.	.	.
2c\	al-	1r	.	0e\	San-	.	1g\	-tus	.	.
.	.	.	.	.	.	.	.	.	4dd\	.
2B\	.	.	.	.	.	.	.	.	1dd\	.
=150-	=150-	=150-	=150-	=150-	=150-	=150-	=150-	=150-	=150-	=150-
1A\	.	2r	.	.	.	.	1a\	San-	.	.
!	!	!	!	!	!	!	!	!	!LO:SIC:v:s=2cc#	!
.	.	2A/	Su-	.	.	.	.	.	2cc\	.
2.D\	-tiſ-	2A/	-per	1d/	.	.	1f/	-ct(us)	0dd\	ctus
.	.	2B/	ve-	.	.	.	.	.	.	.
4E\	-ſi-	.	.	.	.	.	.	.	.	.
!	!	!	!	!	!	!	!LO:LB:g=original	!	!	!
=151-	=151-	=151-	=151-	=151-	=151-	=151-	=151-	=151-	=151-	=151-
2F\	-mi	2A/	-ni-	0d/	-ct(us)	.	1re	.	.	.
2G\	ob-	2.B/	-et	.	.	.	.	.	.	.
2D/	-um-	.	.	.	.	.	1f/	Su-	0r	.
.	.	4A\	.	.	.	.	.	.	.	.
*	*	*custos:c	*	*	*	*	*	*	*	*
2F\	-bra-	1d\	.	.	.	.	.	.	.	.
=152-	=152-	=152-	=152-	=152-	=152-	=152-	=152-	=152-	=152-	=152-
1E\	-bit	.	.	0rc	.	.	1g\	-per	.	.
!	!	!LO:LB:g=original	!	!	!	!	!	!	!	!
!	!	!LO:SIC:v:s=2c#	!	!	!	!	!	!	!	!
!	!	!LO:TX:t=P:problem=kreska pseudotaktowa pojedyncza	!	!	!	!	!	!	!	!
.	.	2c\	in	.	.	.	.	.	.	.
1D\	.	1d\	te	.	.	.	1f/	Ve-	1a/	i-
=153-	=153-	=153-	=153-	=153-	=153-	=153-	=153-	=153-	=153-	=153-
2.C/	ti-	1.G/	et	0g\	et	.	1e/	-ni-	1cc\	-de-
4BB/	.	.	.	.	.	.	.	.	.	.
1GG/	.	.	.	.	.	.	2d/	-et	1b\	-o-
.	.	1D/	Vir-	.	.	.	1dd\	in	.	.
=154-	=154-	=154-	=154-	=154-	=154-	=154-	=154-	=154-	=154-	=154-
2D/	.	.	.	1.f\	Vir-	.	.	.	1a/	-q(ue)
2AA/	.	2E/	-t(us)	.	.	.	2cc\	.	.	.
2D/	.	2F/	al-	.	.	.	2dd\	te	1rg	.
2C/	.	2G/	-tiſ-	2e/	.	.	2.ee\	et	.	.
=155-	=155-	=155-	=155-	=155-	=155-	=155-	=155-	=155-	=155-	=155-
1D\	-bi	2D/	-si-	1f\	-tus	.	.	.	1d/	quod
.	.	.	.	.	.	.	4dd\	.	.	.
.	.	2F/	-mi	.	.	.	1dd\	Vir-	.	.
1rBB	.	1E/	ob-	1.g\	al-	.	.	.	1e/	naſ-
!	!	!	!	!	!	!	!LO:SIC:v:s=2cc#	!	!	!
.	.	.	.	.	.	.	2cc\	.	.	.
=156-	=156-	=156-	=156-	=156-	=156-	=156-	=156-	=156-	=156-	=156-
0GG/	ob-	0G/	-um-	.	.	.	1dd\	-t(us)	1d/	-ce-
.	.	.	.	2f\	.	.	.	.	.	.
.	.	.	.	0d/	-tiſ-	.	1b\	al-	1.dd\	.
!LO:LB:g=original	!	!	!	!	!	!	!	!	!	!
=157-	=157-	=157-	=157-	=157-	=157-	=157-	=157-	=157-	=157-	=157-
1.D\	.	2.F/	-bra-	.	.	.	1a\	-tiſ-	.	-tur
.	.	.	.	.	.	.	.	.	[2ff\	ex
.	.	4G/	.	.	.	.	.	.	.	.
.	.	4A\	.	0a\	.	.	2d/	.	2ff\]	.
.	.	4B\	.	.	.	.	.	.	.	.
2C/	.	2c\	.	.	.	.	2e/	si-	2ee\	te
=158-	=158-	=158-	=158-	=158-	=158-	=158-	=158-	=158-	=158-	=158-
*lig	*	*lig	*	*	*	*	*	*	*	*
1D\	.	1A\	-bit	.	.	.	1f/	-mi	2dd\	San-
.	.	.	.	.	.	.	.	.	2cc\	.
1E\	.	1e\	ti-	1g\	-si-	.	1g\,<	.	1b\	.
*Xlig	*	*Xlig	*	*	*	*	*	*	*	*
=159-	=159-	=159-	=159-	=159-	=159-	=159-	=159-	=159-	=159-	=159-
1F\	.	1A\	-bi	1f\	-mi	.	1a\	o-	2a/	-ctu(m)
*	*	*	*	*	*	*	*	*	*custos:b	*
.	.	.	.	.	.	.	.	.	1cc\	Vo-
*	*	*	*	*	*	*	*lig	*	*	*
!	!	!	!	!	!	!	!LO:TX:t=P:global:problem=przyjęto ligaturę c.o.p.	!	!	!
1G\	-um-	00r	.	2e/	.	.	1g\	-bum-	.	.
!	!	!	!	!	!	!	!	!	!LO:LB:g=original	!
.	.	.	.	2d/	.	.	.	.	2b/	-ca-
=160-	=160-	=160-	=160-	=160-	=160-	=160-	=160-	=160-	=160-	=160-
1A\	-bra-	.	.	1c/	Vo-	.	1e/	.	2a/	.
.	.	.	.	.	.	.	.	.	2g/	.
*	*	*	*	*	*	*	*Xlig	*	*	*
!	!	!	!	!LO:LB:g=original	!	!	!	!	!	!
!LO:SIC:v:s=0.B-	!	!	!	!	!	!	!	!	!	!
*	*	*	*	*	*	*	*	*	*lig	*
1.B\	.	.	.	0d/	-ca-	.	2.d/	-bra-	1f/	.
.	.	.	.	.	.	.	4e/	.	.	.
=161-	=161-	=161-	=161-	=161-	=161-	=161-	=161-	=161-	=161-	=161-
!	!	!	!	!	!	!	!	!	!LO:SIC:v:s=1b-	!
.	.	.	.	.	.	.	2f/	.	1b\	-bi-
4A\	.	.	.	.	.	.	2g/	-bit	.	.
4G\	.	.	.	.	.	.	.	.	.	.
*	*	*	*	*	*	*	*	*	*Xlig	*
2F\	.	00/	.	1f\	-bi-	.	4a\	ti-	1a/	-tur
.	.	.	.	.	.	.	4b\	.	.	.
1A\	.	.	.	.	.	.	4cc\	.	.	.
.	.	.	.	.	.	.	4dd\	.	.	.
=162-	=162-	=162-	=162-	=162-	=162-	=162-	=162-	=162-	=162-	=162-
.	.	.	.	0e\	-tur	.	2cc\	.	1r	.
2G\	.	.	.	.	.	.	1dd\	.	.	.
1A\	-bit	.	.	.	.	.	.	.	2.a/	Fi-
*	*	*	*	*	*	*	*custos:dd	*	*	*
!	!	!	!	!	!	!	!LO:SIC:v:s=2cc#	!	!	!
.	.	.	.	.	.	.	2cc\	.	.	.
.	.	.	.	.	.	.	.	.	4g/	.
!	!	!	!	!	!	!	!LO:LB:g=original	!	!	!
=163-	=163-	=163-	=163-	=163-	=163-	=163-	=163-	=163-	=163-	=163-
!LO:SIC:v:s=2.B-	!	!	!	!	!	!	!	!	!	!
2.B\	ti-	.	.	0d/	.	.	2.dd\	.	4f/	.
.	.	.	.	.	.	.	.	.	4e/	-li-
.	.	.	.	.	.	.	.	.	2d/	-(us)
4A\	.	.	.	.	.	.	4cc\	.	.	.
2G\	.	0r	.	.	.	.	2b\	.	2dd\	De-
2F\	.	.	.	.	.	.	2a\	.	2ff\	.
=164-	=164-	=164-	=164-	=164-	=164-	=164-	=164-	=164-	=164-	=164-
*lig	*	*	*	*	*	*	*	*	*	*
1G\	.	.	.	0r	.	.	2g/	.	2ee\	.
.	.	.	.	.	.	.	2f/	.	1dd\	.
1A\	.	2r	.	.	.	.	1e/	.	.	.
.	.	2A/	qui-	.	.	.	.	.	2cc\	.
!	!	!	!	!	!	!	!	!	!LO:SIC:v:s=2cc#	!
*Xlig	*	*	*	*	*	*	*	*	*	*
=165-	=165-	=165-	=165-	=165-	=165-	=165-	=165-	=165-	=165-	=165-
1D\	-bi	2A/	-a	0f\	di-	.	0d/	-bi	2dd\	-i
.	.	2A/	non	.	.	.	.	.	2a/	et
1r	.	2.d\	eſt	.	.	.	.	.	2a/	i-
.	.	.	.	.	.	.	.	.	2a/	-pſa
.	.	4c\	.	.	.	.	.	.	.	.
=166-	=166-	=166-	=166-	=166-	=166-	=166-	=166-	=166-	=166-	=166-
1.G\	qui-	2B\	im-	0d/	-xit	.	00r	.	2.dd\	con-
.	.	2A/	-poſ-	.	.	.	.	.	.	.
.	.	.	.	.	.	.	.	.	4cc\	.
.	.	2G/	-si-	.	.	.	.	.	2b/	.
2A\	.	2F/	-bi-	.	.	.	.	.	1a/	.
=167-	=167-	=167-	=167-	=167-	=167-	=167-	=167-	=167-	=167-	=167-
*	*	*lig	*	*	*	*	*	*	*	*
1B\	-a	1E/	-le	0e\	au-	.	.	.	.	.
!	!	!	!	!	!	!	!	!	!LO:SIC:v:s=2g#	!
.	.	.	.	.	.	.	.	.	2g/	-ce-
1c\	non	1A\	.	.	.	.	.	.	1a/	-pit
*	*	*Xlig	*	*	*	*	*	*	*	*
=168-	=168-	=168-	=168-	=168-	=168-	=168-	=168-	=168-	=168-	=168-
!	!	!LO:SIC:v:s=2.B-	!	!	!	!	!	!	!	!
2.d\	e-	2.B\	a-	0.d/	-tem	.	0r	.	1f/	Fi-
4c\	-rit	4A/	.	.	.	.	.	.	.	.
2B\	im-	2G/	.	.	.	.	.	.	2g/	-li-
2A\	-poſ-	2F/	-pud	.	.	.	.	.	2a/	-u(m)
!	!	!LO:LB:g=original	!	!	!	!	!	!	!	!
=169-	=169-	=169-	=169-	=169-	=169-	=169-	=169-	=169-	=169-	=169-
!	!	!LO:SIC:v:s=2B-	!	!	!	!	!	!	!	!
2G\	-si-	2B\	De-	.	.	.	1r	.	2d/	in
*	*	*	*	*	*	*	*	*	*custos:ee	*
2F\	-bi-	1A\	.	.	.	.	.	.	2dd\	ſe-
!	!	!	!	!	!	!	!	!	!LO:LB:g=original	!
!	!	!	!	!LO:SIC:v:s=1c#	!	!	!	!	!	!
1E\	-le	.	.	1c/	Ma-	.	1g\	et	2.ee\	-ne-
.	.	2G/	.	.	.	.	.	.	.	.
.	.	.	.	.	.	.	.	.	8dd\L	.
.	.	.	.	.	.	.	.	.	8ee\J	.
=170-	=170-	=170-	=170-	=170-	=170-	=170-	=170-	=170-	=170-	=170-
*	*	*lig	*	*	*	*	*	*	*	*
0D\	a-	1A\	-um	1d/	-ri-	.	2.f/	i-	2ff\	-ctu-
.	.	.	.	.	.	.	.	.	2.dd\	-te
.	.	.	.	.	.	.	4g\	.	.	.
.	.	1d\	.	1f\	-a	.	2a\	-pſa	.	.
.	.	.	.	.	.	.	.	.	8cc\L	.
.	.	.	.	.	.	.	.	.	8b\J	.
.	.	.	.	.	.	.	2f/	.	2a/	ſu-
*	*	*Xlig	*	*	*	*	*	*	*	*
!LO:LB:g=original	!	!	!	!	!	!	!	!	!	!
=171-	=171-	=171-	=171-	=171-	=171-	=171-	=171-	=171-	=171-	=171-
1E\	-pud	2B\	o-	1e\	ad	.	2g/	con-	1g/	-a
.	.	2.c\	-mne	.	.	.	1e/	-ce-	.	.
0F\	De-	.	.	1.a\	An-	.	.	.	0r	.
.	.	4B\	.	.	.	.	.	.	.	.
.	.	4A/	.	.	.	.	4d/	.	.	.
.	.	4G/	.	.	.	.	4c/	.	.	.
=172-	=172-	=172-	=172-	=172-	=172-	=172-	=172-	=172-	=172-	=172-
.	.	1A\	.	.	.	.	1d/	-pit	.	.
.	.	.	.	2f\	.	.	.	.	.	.
1.E\	-um	2B\	.	1.g\	.	.	2.e/	fi-	1r	.
.	.	2G/	.	.	.	.	.	.	.	.
.	.	.	.	.	.	.	4f/	.	.	.
=173-	=173-	=173-	=173-	=173-	=173-	=173-	=173-	=173-	=173-	=173-
.	.	1c\	Ver-	.	.	.	2g/	.	1g/	et
2F\	.	.	.	2f\	.	.	2a\	.	.	.
1G\	o-	1B\	.	2e/	.	.	1b\	.	1g/	hic
.	.	.	.	2d/	.	.	.	.	.	.
=174-	=174-	=174-	=174-	=174-	=174-	=174-	=174-	=174-	=174-	=174-
*	*	*lig	*	*	*	*	*	*	*	*
0C/	-mne	1G/	-bum	0e\	-ge-	.	2.cc\	.	1.g/	Men-
.	.	.	.	.	.	.	4dd\	.	.	.
.	.	1c\	.	.	.	.	2ee\	.	.	.
.	.	.	.	.	.	.	1cc\	.	2g/	-ſis
!	!	!	!	!	!	!	!	!	!LO:SIC:v:l:s=-sus	!
*	*	*Xlig	*	*	*	*	*	*	*	*
=175-	=175-	=175-	=175-	=175-	=175-	=175-	=175-	=175-	=175-	=175-
!	!	!	!	!LO:TX:a:t=6	!	!	!	!	!	!
0G\	Ver-	1rF	.	00.d/	-lum	.	.	.	1g/	eſt
.	.	.	.	.	.	.	4b\	.	.	.
.	.	.	.	.	.	.	4a\	.	.	.
.	.	1G/	di-	.	.	.	1b\	-li-	1g/	Se-
=176-	=176-	=176-	=176-	=176-	=176-	=176-	=176-	=176-	=176-	=176-
!LO:TX:a:t=4	!	!	!	!	!	!	!	!	!	!
00D\	-bum	1A\	-xit	.	.	.	0a\	-um	1f/	-xt(us)
.	.	1A\	au-	.	.	.	.	.	1f/	il-
=177-	=177-	=177-	=177-	=177-	=177-	=177-	=177-	=177-	=177-	=177-
.	.	2.d\	-tem	.	.	.	1a\	in	1f/	-li
.	.	4c\	.	.	.	.	.	.	.	.
.	.	2B\	.	.	.	.	2.dd\	ſe-	2rg	.
.	.	2A/	.	.	.	.	.	.	2a/	quae
.	.	.	.	.	.	.	4cc\	.	.	.
!	!	!	!	!	!	!	!LO:LB:g=original	!	!	!
=178-	=178-	=178-	=178-	=178-	=178-	=178-	=178-	=178-	=178-	=178-
00r	.	2G/	.	00r	.	.	2b\	-ne-	2.dd\	Vo-
.	.	1d\	Ma-	.	.	.	2a\	.	.	.
.	.	.	.	.	.	.	.	.	4cc\	.
.	.	.	.	.	.	.	2dd\	-ctu-	2b/	.
.	.	2A/	.	.	.	.	2.ee\	-te	2a/	.
=179-	=179-	=179-	=179-	=179-	=179-	=179-	=179-	=179-	=179-	=179-
.	.	2c\	.	.	.	.	.	.	2g/	.
.	.	.	.	.	.	.	4dd\	.	.	.
.	.	2d\	-ri-	.	.	.	1dd\	.	2f/	.
.	.	1A\	-a	.	.	.	.	.	1e/	-ca-
!	!	!	!	!	!	!	!LO:SIC:v:s=2cc#	!	!	!
.	.	.	.	.	.	.	2cc\	ſu-	.	.
!	!	!	!	!LO:LB:g=original	!	!	!	!	!	!
=180-	=180-	=180-	=180-	=180-	=180-	=180-	=180-	=180-	=180-	=180-
1.G\	di-	0r	.	0d/	Ec-	.	1dd\	-a	2d/	-tur
.	.	.	.	.	.	.	.	.	1g/	Ste-
.	.	.	.	.	.	.	1r	.	.	.
2D/	-xit	.	.	.	.	.	.	.	2f/	-ri-
=181-	=181-	=181-	=181-	=181-	=181-	=181-	=181-	=181-	=181-	=181-
1G\	au-	1r	.	1e\	-ce	.	1b\	An-	1g/	-lis
!	!	!	!	!	!	!	!	!	!LO:LB:g=original	!
1.F\	-tem	1c\	Ec-	0f\	an-	.	1a\	-cil-	2rg	.
.	.	.	.	.	.	.	.	.	2a/	Ec-
=182-	=182-	=182-	=182-	=182-	=182-	=182-	=182-	=182-	=182-	=182-
.	.	1.c\	-ce	.	.	.	1a\	-la	2.cc\	-ce
4E\	.	.	.	.	.	.	.	.	.	.
4D\	.	.	.	.	.	.	.	.	4dd\	.
2C/	.	.	.	2e/	-cil-	.	1.a\	Do-	2ee\	an-
!	!	!LO:SIC:v:s=2B-	!	!	!	!	!	!	!	!
2D/	Ma-	2B\	.	2d/	-la	.	.	.	1ff\	-cil-
!	!	!LO:LB:g=original	!	!	!	!	!	!	!	!
=183-	=183-	=183-	=183-	=183-	=183-	=183-	=183-	=183-	=183-	=183-
1F\	-ri-	1A\	.	1.c/	do-	.	.	.	.	.
.	.	.	.	.	.	.	2f/	-mi-	4ee\	.
.	.	.	.	.	.	.	.	.	4dd\	.
1E\	.	1G/	An-	.	.	.	1g\	-ni	1ee\	-la
.	.	.	.	2B/	.	.	.	.	.	.
=184-	=184-	=184-	=184-	=184-	=184-	=184-	=184-	=184-	=184-	=184-
0D\	.	2.A/	-cil-	1.d/	.	.	0f/	.	1ff\	Do-
.	.	8G/L	.	.	.	.	.	.	.	.
.	.	8A/J	.	.	.	.	.	.	.	.
!	!	!LO:SIC:v:s=2B-	!	!	!	!	!	!	!	!
.	.	2B/	.	.	.	.	.	.	1dd\	-mi-
.	.	2A/	-la	2c/	-mi-	.	.	.	.	.
=185-	=185-	=185-	=185-	=185-	=185-	=185-	=185-	=185-	=185-	=185-
*	*	*lig	*	*	*	*	*	*	*	*
!	!	!	!	!LO:SIC:v:s=1B-	!	!	!	!	!	!
1GG/	-a	1G/	Do-	1B/	-ni	.	2g/	fi-	1dd\	-ni
.	.	.	.	.	.	.	1g\	-at	.	.
0r	.	1A\	.	1A/	fi-	.	.	.	1.cc\	fi-
!	!	!	!	!	!	!	!LO:SIC:v:s=2f#	!	!	!
.	.	.	.	.	.	.	2f/	mi-	.	.
*	*	*Xlig	*	*	*	*	*	*	*	*
=186-	=186-	=186-	=186-	=186-	=186-	=186-	=186-	=186-	=186-	=186-
.	.	0G/	-mi-	0d/	-at	.	0g\	-hi	.	.
.	.	.	.	.	.	.	.	.	4b\	.
.	.	.	.	.	.	.	.	.	4a\	.
1GG/	fi-	.	.	.	.	.	.	.	1b\	-at
=187-	=187-	=187-	=187-	=187-	=187-	=187-	=187-	=187-	=187-	=187-
0C/	-at	0G/	-ni	1.c/	mi-	.	1.e/	.	0cc\	mi-
.	.	.	.	2d/	.	.	2f/	.	.	.
=188-	=188-	=188-	=188-	=188-	=188-	=188-	=188-	=188-	=188-	=188-
1C/	mi-	1rA	.	1e\	-hi	.	2g/	Se-	1cc\	-hi
.	.	.	.	.	.	.	2.a/	-cun-	.	.
*lig	*	*	*	*	*	*	*	*	*	*
1D\	-hi	1d\	Mi-	1f\	Se-	.	.	.	1a/	Se-
.	.	.	.	.	.	.	4g/	.	.	.
.	.	.	.	.	.	.	4f/	.	.	.
.	.	.	.	.	.	.	4e/	.	.	.
=189-	=189-	=189-	=189-	=189-	=189-	=189-	=189-	=189-	=189-	=189-
1G\	.	1B\	-hi	1g\	-cun-	.	1d/	.	1b\	-cun-
*Xlig	*	*	*	*	*	*	*lig	*	*	*
1A\	Se-	1.A\	Se-	2f\	.	.	1c/	-dum	1cc\	-du(m)
.	.	.	.	2e\	-dum	.	.	.	.	.
=190-	=190-	=190-	=190-	=190-	=190-	=190-	=190-	=190-	=190-	=190-
1D\	-cun-	.	.	1d/	ver-	.	1f/	.	1dd\	Ver-
.	.	2B\	.	.	.	.	.	.	.	.
*	*	*	*	*	*	*	*Xlig	*	*	*
1A\	-du(m)	2c\	.	1c/	.	.	1e/	Ver-	1.ee\	-bum
.	.	2A/	-cun-	.	.	.	.	.	.	.
!LO:LB:g=original	!	!	!	!	!	!	!	!	!	!
=191-	=191-	=191-	=191-	=191-	=191-	=191-	=191-	=191-	=191-	=191-
1G\	Ver-	1B\	-d(um)	1d/	.	.	1g\	-bu(m)	.	.
.	.	.	.	.	.	.	.	.	2dd\	.
!	!	!	!	!	!	!	!LO:LB:g=original	!	!	!
1D\	-bum	1A\	Ver-	1f\	-bu(m)	.	0.a\	tu-	1.dd\	tu-
=192-	=192-	=192-	=192-	=192-	=192-	=192-	=192-	=192-	=192-	=192-
1A\	tu-	0c\	-b(um)	0e\	tu-	.	.	.	.	.
!	!	!	!	!	!	!	!	!	!LO:SIC:v:s=4cc#	!
.	.	.	.	.	.	.	.	.	4cc\	.
.	.	.	.	.	.	.	.	.	4b\	.
!	!	!	!	!	!	!	!	!	!LO:SIC:v:s=1cc#	!
1AA/	.	.	.	.	.	.	.	.	1cc\	.
!	!	!	!	!LO:LB:g=original	!	!	!	!	!	!
=193-	=193-	=193-	=193-	=193-	=193-	=193-	=193-	=193-	=193-	=193-
00D\;;	-um	0A\	tu-	00d/;;	-um	.	00a\;	-um	00dd\;;	-um
=194-	=194-	=194-	=194-	=194-	=194-	=194-	=194-	=194-	=194-	=194-
.	.	0A\;;	-um	.	.	.	.	.	.	.
==	==	==	==	==	==	==	==	==	==	==
*-	*-	*-	*-	*-	*-	*-	*-	*-	*-	*-
!!!system-decoration: [(s1,s2,s3,s4,s5)]
!!!RDF**kern: > = above
!!!RDF**kern: < = below
!!!RDF**kern: | = vertical stroke
!!!EED: Leszek Kubiak
!!!EEV: 2021-02-19
!!!ENC: Andrzej Kubiczek
!!!END: 2021-02-14
